!!!!SEGMENT: pl-cz--iii-753--001-003_zebrowski-marcin-jozef--vesperae-in-d-beatus-vir.krn
!!!cenid: 17xx:2374
!!!COM: Żebrowski, Marcin Józef
!!!COM-rismID: pe30020322
!!!CDT: 1702-1770/06/29
!!!CNT: Polish
!!!OPR: Vesperae in D
!!!OTL: Beatus vir
!!!OMV: 003
!!!PDT:
!!!AGN:
!!!SMS-siglum: PL-CZ
!!!SMS-shelfmark: III-753
!!!SMS-shelfwork: 001-003 M
!!!SMS-variant:
!!!SMS-altvar:
!!!NIFC-rismSourceID: 300033504
!!!NIFC-rismChildID: 300033505
!!!NIFC-islandoraID: pl-cz:25492
!!!URL-pdf-islandora: https://repozytorium.nifc.pl/islandora/object/pl-cz%3A25492/datastream/PDF/view
!!!URL-scan: https://polish.musicsources.pl/pl/lokalizacje/galeria/rekopisy/1484 @EN{Scan on Polish Music Sources Website} @PL{Skany w portalu Dziedzictwo Muzyki Polskiej w otwartym dostępie}
!!!ONB-nifc: UWAGA: części Nieszporów: 1. Dixit Dominus, 2. Confitebor, 3. Beatus vir, 4. Laudate pueri, 5. Laudate Dominum, 6. Credidi, 7. In convertendo, 8. Domine probasti me, 9. Laetatus sum, 10. Nisi Dominus, 11. Lauda Jerusalem, 12. Magnificat, 13. Quia respexit, 14. Deposuit potentes, 15. Gloria patri
!!!AIN: 1 alto 1 bass 2 clrno 1 fagot 1 organ 1 soprn 1 tenor 2 violn
!!!key: E
**kern	**fba	**kern	**fba	**kern	**dynam	**kern	**dynam	**kern	**text	**kern	**text	**kern	**text	**kern	**text	**kern	**kern
*group4	*	*group4	*	*group3	*	*group3	*	*group2	*	*group2	*	*group2	*	*group2	*	*group1	*group1
*part10	*	*part9	*	*part8	*part8	*part7	*part7	*part6	*part6	*part5	*part5	*part4	*part4	*part3	*part3	*part2	*part1
*staff10	*	*staff9	*	*staff8	*	*staff7	*	*staff6	*staff6	*staff5	*staff5	*staff4	*staff4	*staff3	*staff3	*staff2	*staff1
*I"Organo.	*	*I"Baſsone.	*	*I"Violino Secondo.	*	*I"Violino Primo.	*	*I"Baſso.	*	*I"Tenore.	*	*I"Alto.	*	*I"Canto.	*	*I"Clarino Secondo ex D.	*I"Clarino Primo ex D
*I'org	*	*I'fag	*	*I'vl 2	*	*I'vl 1	*	*I'B	*	*I'T	*	*I'A	*	*I'S	*	*I'clno 2	*I'clno 1
*Iorgan	*	*Ifagot	*	*Ivioln	*	*Ivioln	*	*Ibass	*	*Itenor	*	*Ialto	*	*Isoprn	*	*Iclrno	*Iclrno
*ICklav	*	*ICww	*	*ICstr	*	*ICstr	*	*ICvox	*	*ICvox	*	*ICvox	*	*ICvox	*	*ICbras	*ICbras
*IGcont	*	*IGcont	*	*	*	*	*	*IGcoro	*	*IGcoro	*	*IGcoro	*	*IGcoro	*	*	*
*clefF4	*	*clefF4	*	*clefG2	*	*clefG2	*	*clefF4	*	*clefC4	*	*clefC3	*	*clefC1	*	*clefG2	*clefG2
*	*	*	*	*	*	*	*	*	*	*	*	*	*	*	*	*ITrd-1c-2	*ITrd-1c-2
*k[f#c#g#d#]	*	*k[f#c#g#d#]	*	*k[f#c#g#d#]	*	*k[f#c#g#d#]	*	*k[f#c#g#d#]	*	*k[f#c#g#d#]	*	*k[f#c#g#d#]	*	*k[f#c#g#d#]	*	*k[f#c#g#d#]	*k[f#c#g#d#]
*E:	*	*E:	*	*E:	*	*E:	*	*E:	*	*E:	*	*E:	*	*E:	*	*E:	*E:
*M3/4	*	*M3/4	*	*M3/4	*	*M3/4	*	*M3/4	*	*M3/4	*	*M3/4	*	*M3/4	*	*M3/4	*M3/4
=1	=1	=1	=1	=1	=1	=1	=1	=1	=1	=1	=1	=1	=1	=1	=1	=1	=1
!	!	!LO:TX:a:i:rj:t=Allo	!	!	!	!	!	!	!	!	!	!	!	!	!	!	!
!LO:TX:b:i:rj:t=allo.	!	!LO:TX:b:i:t=Tutti.	!	!LO:TX:b:rj:i:t=Allo.	!	!LO:TX:b:rj:i:t=Allo.	!	!LO:TX:b:rj:i:t=Allo.	!	!LO:TX:a:rj:i:t=allo.	!	!LO:TX:b:i:rj:t=Allo.	!	!LO:TX:a:i:t=Allo.	!	!	!
4E\	.	4E\	.	8r	.	8r	.	8r	.	8r	.	8r	.	8r	.	2.ryy	2.ryy
.	.	.	.	8g#/	.	8ee\	.	8E\	Be-	8B\	Be-	8g#\	Be-	8ee\	Be-	.	.
!LO:TX:b:i:t=tutti.	!	!	!	!	!	!	!	!	!	!	!	!	!	!	!	!	!
.	.	.	.	8qqb/	.	8qqgg#/	.	.	.	.	.	.	.	.	.	.	.
4A\	6	4A\	6	4a/	.	4ff#\	.	4A\	-a-	4c#\	-a-	4a\	-a-	4ff#\	-a-	.	.
.	.	.	.	8qqg#/	.	8qqee/	.	.	.	.	.	.	.	.	.	.	.
4B\	.	4B\	.	4f#/	.	4dd#\	.	4B\	-tus	4B\	-tus	4f#\	-tus	4dd#\	-tus	.	.
=2	=2	=2	=2	=2	=2	=2	=2	=2	=2	=2	=2	=2	=2	=2	=2	=2	=2
.	.	.	.	8qqf#/	.	.	.	.	.	.	.	.	.	.	.	.	.
*2\right	*	*2\right	*	*	*	*	*	*2\right	*	*2\right	*	*2\right	*	*2\right	*	*	*
2E\	.	2E\	.	2g#/	.	8ee\L	.	2E\	vir	2B\	vir	2g#\	vir	2ee\	vir	2.ryy	2.ryy
.	.	.	.	.	.	16dd#\L	.	.	.	.	.	.	.	.	.	.	.
.	.	.	.	.	.	16cc#\JJ	.	.	.	.	.	.	.	.	.	.	.
.	.	.	.	.	.	8b/L	.	.	.	.	.	.	.	.	.	.	.
.	.	.	.	.	.	8a/	.	.	.	.	.	.	.	.	.	.	.
4r	.	4r	.	4r	.	8g#/	.	4r	.	4r	.	4r	.	4r	.	.	.
.	.	.	.	.	.	8f#/J	.	.	.	.	.	.	.	.	.	.	.
=3	=3	=3	=3	=3	=3	=3	=3	=3	=3	=3	=3	=3	=3	=3	=3	=3	=3
!	!	!	!	!	!	!LO:TX:t=P:problem:mixed beam	!	!	!	!	!	!	!	!	!	!	!
8r	.	8r	.	8r	.	8e/L	.	8r	.	8r	.	8r	.	8r	.	2.ryy	2.ryy
8c#\	.	8c#\	.	8ee\	.	8gg#\J	.	8F#\	qui	8c#\	be-	8g#\	be-	8ee\	be-	.	.
.	.	.	.	8qqgg#/	.	8qqbb/	.	.	.	.	.	.	.	.	.	.	.
4A\	6	4A\	.	4ff#\	.	4aa\	.	8G#\	ti-	4c#\	-a-	4a\	-a-	4ff#\	-a-	.	.
.	.	.	.	.	.	.	.	8A\	-met	.	.	.	.	.	.	.	.
.	.	.	.	8qqee/	.	8qqgg#/	.	.	.	.	.	.	.	.	.	.	.
4B\	.	4B\	.	4dd#\	.	4ff#\	.	8.B\	Do-	4B\	-tus	4f#\	-tus	4dd#\	-tus	.	.
.	.	.	.	.	.	.	.	16BB/	-mi-	.	.	.	.	.	.	.	.
=4	=4	=4	=4	=4	=4	=4	=4	=4	=4	=4	=4	=4	=4	=4	=4	=4	=4
!LO:TX:t=P:problem:mixed beam	!	!LO:TX:t=P:problem:mixed beam	!	!	!	!	!	!	!	!	!	!	!	!	!	!	!
8E\L	.	8E\L	.	8ee\L	.	8gg#\L	.	4E\	-num	4B\	vir	4g#\	vir	2ee\	vir	2.ryy	2.ryy
8F#\	.	8F#\	.	16dd#\L	.	16ff#\L	.	.	.	.	.	.	.	.	.	.	.
.	.	.	.	16cc#\JJ	.	16ee\JJ	.	.	.	.	.	.	.	.	.	.	.
8G#\	6	8G#\	.	8b/L	.	8dd#\L	.	4r	.	4r	.	4r	.	.	.	.	.
8A\	.	8A\	.	8a/	.	8cc#\	.	.	.	.	.	.	.	.	.	.	.
8B\	.	8B\	.	8g#/	.	8b\	.	4r	.	4r	.	4r	.	4r	.	.	.
8BB/J	.	8BB/J	.	8f#/J	.	8a\J	.	.	.	.	.	.	.	.	.	.	.
=5	=5	=5	=5	=5	=5	=5	=5	=5	=5	=5	=5	=5	=5	=5	=5	=5	=5
!	!	!	!	!	!	!	!	!LO:TX:t=P:problem:brak jednego taktu pauzy	!	!LO:TX:a:t=1.	!	!	!	!	!	!	!
8E\L	.	8E\L	.	4e/	.	(16g#\LL	.	2.ryy	.	2.r	.	4r	.	4r	.	2.ryy	2.ryy
.	.	.	.	.	.	16b\	.	.	.	.	.	.	.	.	.	.	.
8E\	.	8E\	.	.	.	16cc#\	.	.	.	.	.	.	.	.	.	.	.
.	.	.	.	.	.	16dd#\JJ)	.	.	.	.	.	.	.	.	.	.	.
8E\	.	8E\	.	4r	.	(16ee\LL	.	.	.	.	.	4b\	in	4gg#\	in	.	.
.	.	.	.	.	.	16ff#\	.	.	.	.	.	.	.	.	.	.	.
8E\	.	8E\	.	.	.	16gg#\	.	.	.	.	.	.	.	.	.	.	.
.	.	.	.	.	.	16aa\JJ)	.	.	.	.	.	.	.	.	.	.	.
8E\	.	8E\	.	4r	.	16bb|\LL	.	.	.	.	.	4b\	man-	4gg#\	man-	.	.
.	.	.	.	.	.	(16gg#\	.	.	.	.	.	.	.	.	.	.	.
8E\J	.	8E\J	.	.	.	16ff#\	.	.	.	.	.	.	.	.	.	.	.
.	.	.	.	.	.	16ee\JJ)	.	.	.	.	.	.	.	.	.	.	.
=6	=6	=6	=6	=6	=6	=6	=6	=6	=6	=6	=6	=6	=6	=6	=6	=6	=6
.	.	.	.	.	.	16qqee\LL	.	.	.	.	.	.	.	.	.	.	.
.	.	.	.	.	.	16qqgg#\JJ	.	.	.	.	.	.	.	.	.	.	.
8D#\L	6	8D#/L	.	16r	.	4ff#\	.	4r	.	4r	.	4b\	-da-	4ff#\	-da-	2.ryy	2.ryy
.	.	.	.	(16b\LL	.	.	.	.	.	.	.	.	.	.	.	.	.
8D#\	.	8D#/	.	16cc#\	.	.	.	.	.	.	.	.	.	.	.	.	.
.	.	.	.	16dd#\JJ)	.	.	.	.	.	.	.	.	.	.	.	.	.
8D#\	.	8D#/	.	(16ee\LL	.	4b/	.	4D#/	e-	4B\	e-	4b\	-tis	4ff#\	-tis	.	.
.	.	.	.	16ff#\	.	.	.	.	.	.	.	.	.	.	.	.	.
8D#\	.	8D#/	.	16gg#\	.	.	.	.	.	.	.	.	.	.	.	.	.
.	.	.	.	16aa#X\JJ)	.	.	.	.	.	.	.	.	.	.	.	.	.
8D#\	.	8D#/	.	16bb|\LL	.	4r	.	4D#/	-jus	4B\	-jus	4r	.	4r	.	.	.
.	.	.	.	(16ff#\	.	.	.	.	.	.	.	.	.	.	.	.	.
8D#\J	.	8D#/J	.	16dd#\	.	.	.	.	.	.	.	.	.	.	.	.	.
.	.	.	.	16b\JJ)	.	.	.	.	.	.	.	.	.	.	.	.	.
=7	=7	=7	=7	=7	=7	=7	=7	=7	=7	=7	=7	=7	=7	=7	=7	=7	=7
8E\L	.	8E\L	.	4gg#\	.	16r	.	4E\	vo-	4B\	vo-	4r	.	4r	.	2.ryy	2.ryy
.	.	.	.	.	.	(16b\LL	.	.	.	.	.	.	.	.	.	.	.
8E\	.	8E\	.	.	.	16cc#\	.	.	.	.	.	.	.	.	.	.	.
.	.	.	.	.	.	16dd#\JJ	.	.	.	.	.	.	.	.	.	.	.
8E\	.	8E\	.	4e/	.	16ee\LL	.	4E\	-let	4B\	-let	4g#\	vo-	4ee\	vo-	.	.
.	.	.	.	.	.	16ff#\)	.	.	.	.	.	.	.	.	.	.	.
8E\	.	8E\	.	.	.	(16gg#\	.	.	.	.	.	.	.	.	.	.	.
.	.	.	.	.	.	16aa\JJ	.	.	.	.	.	.	.	.	.	.	.
8E\	.	8E\	.	4r	.	16bb|\LL)	.	4r	.	4r	.	4g#\	-let	4ee\	-let	.	.
.	.	.	.	.	.	(16gg#\	.	.	.	.	.	.	.	.	.	.	.
8E\J	.	8E\J	.	.	.	16ff#\	.	.	.	.	.	.	.	.	.	.	.
.	.	.	.	.	.	16ee\JJ)	.	.	.	.	.	.	.	.	.	.	.
=8	=8	=8	=8	=8	=8	=8	=8	=8	=8	=8	=8	=8	=8	=8	=8	=8	=8
!	!	!	!	!	!	!LO:TX:t=P:problem:klamra łukowa, kreska zamiast numeru	!	!	!	!	!	!	!	!	!	!	!
!	!	!	!	!	!	!LO:TUP:a	!	!	!	!	!	!	!	!	!	!	!
8BB/L	5	8BB/L	.	16r	.	12dd#\L	.	4r	.	4r	.	4f#\	ni-	4dd#\	ni-	2.ryy	2.ryy
.	.	.	.	(16b\LL	.	.	.	.	.	.	.	.	.	.	.	.	.
.	.	.	.	.	.	12cc#\	.	.	.	.	.	.	.	.	.	.	.
8BB/	.	8BB/	.	16cc#\	.	.	.	.	.	.	.	.	.	.	.	.	.
.	.	.	.	.	.	12b\J	.	.	.	.	.	.	.	.	.	.	.
!	!	!	!	!LO:SIC:v:t=custos ee	!	!	!	!	!	!	!	!	!	!	!	!	!
.	.	.	.	16dd#\JJ)	.	.	.	.	.	.	.	.	.	.	.	.	.
!	!	!	!	!LO:LB:g=original	!	!	!	!	!	!	!	!	!	!	!	!	!
8BB/	.	8BB/	.	(16ee\LL	.	4b\	.	4BB/	po-	4B\	po-	4f#\	-mis	4dd#\	-mis	.	.
.	.	.	.	16ff#\	.	.	.	.	.	.	.	.	.	.	.	.	.
8BB/	.	8BB/	.	16gg#\	.	.	.	.	.	.	.	.	.	.	.	.	.
.	.	.	.	16aa#X\JJ)	.	.	.	.	.	.	.	.	.	.	.	.	.
8BB/	.	8BB/	.	16bb|\LL	.	4r	.	8BB/	-tens	8B\	-tens	4r	.	4r	.	.	.
.	.	.	.	(16ff#\	.	.	.	.	.	.	.	.	.	.	.	.	.
8BB/J	.	8BB/J	.	16dd#\	.	.	.	8BB/	in	8B\	in	.	.	.	.	.	.
.	.	.	.	16b\JJ)	.	.	.	.	.	.	.	.	.	.	.	.	.
!	!	!	!	!	!	!LO:LB:g=original	!	!LO:LB:g=original	!	!LO:LB:g=original	!	!	!	!	!	!	!
=9	=9	=9	=9	=9	=9	=9	=9	=9	=9	=9	=9	=9	=9	=9	=9	=9	=9
8C#/L	3	8C#/L	.	4ee\	.	16r	.	4C#/	ter-	4G#/	ter-	4r	.	4r	.	2.ryy	2.ryy
.	.	.	.	.	.	(16g#/LL	.	.	.	.	.	.	.	.	.	.	.
8C#/	.	8C#/	.	.	.	16a#X/	.	.	.	.	.	.	.	.	.	.	.
.	.	.	.	.	.	16b#X/JJ)	.	.	.	.	.	.	.	.	.	.	.
8C#/	.	8C#/	.	4c#/	.	(16cc#\LL	.	4C#/	-ra	4G#/	-ra	8e\	e-	8ee\	e-	.	.
.	.	.	.	.	.	16dd#\	.	.	.	.	.	.	.	.	.	.	.
8C#/	.	8C#/	.	.	.	16ee\	.	.	.	.	.	8e\	-rit	8ee\	-rit	.	.
.	.	.	.	.	.	16ff#\JJ)	.	.	.	.	.	.	.	.	.	.	.
!	!	!	!	!	!	!	!	!	!	!	!	!LO:LB:g=original	!	!	!	!	!
8C#/	.	8C#/	.	4r	.	16gg#|\LL	.	4r	.	4r	.	8g#\	se-	8ee\	se-	.	.
.	.	.	.	.	.	(16ee\	.	.	.	.	.	.	.	.	.	.	.
8C#/J	.	8C#/J	.	.	.	16dd#\	.	.	.	.	.	8g#\	-men	8ee\	-men	.	.
.	.	.	.	.	.	16cc#\JJ)	.	.	.	.	.	.	.	.	.	.	.
!LO:LB:g=original	!	!LO:LB:g=original	!	!	!	!	!	!	!	!	!	!	!	!LO:LB:g=original	!	!	!
=10	=10	=10	=10	=10	=10	=10	=10	=10	=10	=10	=10	=10	=10	=10	=10	=10	=10
8BB#X/L	6	8BB#X/L	.	16r	.	4dd#\	.	4r	.	4r	.	4g#\	e-	4dd#\	e-	2.ryy	2.ryy
.	.	.	.	(16g#/LL	.	.	.	.	.	.	.	.	.	.	.	.	.
8BB#/	.	8BB#/	.	16a#X/	.	.	.	.	.	.	.	.	.	.	.	.	.
.	.	.	.	16b#X/JJ)	.	.	.	.	.	.	.	.	.	.	.	.	.
8BB#/	.	8BB#/	.	(16cc#\LL	.	4g#/	.	8BB#X/	ge-	8G#/	ge-	4g#\	-jus	4dd#\	-jus	.	.
.	.	.	.	16dd#\	.	.	.	.	.	.	.	.	.	.	.	.	.
8BB#/	.	8BB#/	.	16ee\	.	.	.	8BB#/	-ne-	8G#/	-ne-	.	.	.	.	.	.
.	.	.	.	16ff#\JJ)	.	.	.	.	.	.	.	.	.	.	.	.	.
8BB#/	.	8BB#/	.	16gg#|\LL	.	4r	.	8BB#/	-ra-	8G#/	-ra-	4r	.	4r	.	.	.
.	.	.	.	(16dd#\	.	.	.	.	.	.	.	.	.	.	.	.	.
8BB#/J	.	8BB#/J	.	16b#X\	.	.	.	8BB#/	-ti-	8G#/	-ti-	.	.	.	.	.	.
.	.	.	.	16g#\JJ)	.	.	.	.	.	.	.	.	.	.	.	.	.
=11	=11	=11	=11	=11	=11	=11	=11	=11	=11	=11	=11	=11	=11	=11	=11	=11	=11
8C#/L	.	8C#/L	.	4ee\	.	16r	.	4C#/	-o	4G#/	-o	4r	.	4r	.	2.ryy	2.ryy
.	.	.	.	.	.	(16g#/LL	.	.	.	.	.	.	.	.	.	.	.
8C#/	.	8C#/	.	.	.	16a#X/	.	.	.	.	.	.	.	.	.	.	.
.	.	.	.	.	.	16b#X/JJ)	.	.	.	.	.	.	.	.	.	.	.
8C#/	.	8C#/	.	4c#/	.	(16cc#\LL	.	4r	.	4r	.	2e\	rec-	2cc#\	rec-	.	.
.	.	.	.	.	.	16dd#\	.	.	.	.	.	.	.	.	.	.	.
8C#/	.	8C#/	.	.	.	16ee\	.	.	.	.	.	.	.	.	.	.	.
.	.	.	.	.	.	16ff#\JJ)	.	.	.	.	.	.	.	.	.	.	.
8C#/	.	8C#/	.	4r	.	16gg#|\LL	.	4r	.	4r	.	.	.	.	.	.	.
.	.	.	.	.	.	(16ee\	.	.	.	.	.	.	.	.	.	.	.
8C#/J	.	8C#/J	.	.	.	16dd#\	.	.	.	.	.	.	.	.	.	.	.
.	.	.	.	.	.	16cc#\JJ)	.	.	.	.	.	.	.	.	.	.	.
=12	=12	=12	=12	=12	=12	=12	=12	=12	=12	=12	=12	=12	=12	=12	=12	=12	=12
!	!	!	!	!	!	!LO:TX:t=P:problem:kreska zamiast numeru	!	!	!	!	!	!	!	!	!	!	!
!	!	!	!	!	!	!LO:TUP:b	!	!	!	!	!	!	!	!	!	!	!
8GG#/L	#	8GG#/L	.	16r	.	12b#X/L	.	8r	.	8r	.	4d#\	-to-	4b#X\	-to-	2.ryy	2.ryy
.	.	.	.	(16g#/LL	.	.	.	.	.	.	.	.	.	.	.	.	.
.	.	.	.	.	.	12a/	.	.	.	.	.	.	.	.	.	.	.
8GG#/	.	8GG#/	.	16a#X/	.	.	.	8GG#/	be-	8G#/	be-	.	.	.	.	.	.
.	.	.	.	.	.	12g#/J	.	.	.	.	.	.	.	.	.	.	.
.	.	.	.	16b#X/JJ)	.	.	.	.	.	.	.	.	.	.	.	.	.
8GG#/	.	8GG#/	.	(16cc#\LL	.	4g#/	.	8GG#/	-ne-	8G#/	-ne-	4d#\	-rum	4b#\	-rum	.	.
.	.	.	.	16dd#\	.	.	.	.	.	.	.	.	.	.	.	.	.
8GG#/	.	8GG#/	.	16ee\	.	.	.	8GG#/	-di-	8G#/	-di-	.	.	.	.	.	.
.	.	.	.	16ff#\JJ)	.	.	.	.	.	.	.	.	.	.	.	.	.
8GG#/	.	8GG#/	.	16gg#|\LL	.	4r	.	4GG#/	-ce-	4G#/	-ce-	4r	.	4r	.	.	.
.	.	.	.	(16dd#\	.	.	.	.	.	.	.	.	.	.	.	.	.
8GG#/J	.	8GG#/J	.	16b#X\	.	.	.	.	.	.	.	.	.	.	.	.	.
.	.	.	.	16g#\JJ)	.	.	.	.	.	.	.	.	.	.	.	.	.
=13	=13	=13	=13	=13	=13	=13	=13	=13	=13	=13	=13	=13	=13	=13	=13	=13	=13
!LO:TX:t=P:problem:mixed beam	!	!LO:TX:t=P:problem:mixed beam	!	!	!	!	!	!	!	!	!	!	!	!	!	!	!
8AA/L	5	8AA/L	.	4cc#\	.	16r	.	4AA/	-tur	4E/	-tur	8a\	glo-	8cc#\	glo-	2.ryy	2.ryy
.	.	.	.	.	.	(16e/LL	.	.	.	.	.	.	.	.	.	.	.
8A\	.	8A\	.	.	.	16f#/	.	.	.	.	.	16a\	-ri-	16cc#\	-ri-	.	.
.	.	.	.	.	.	16g#/JJ)	.	.	.	.	.	16a\	-a	16cc#\	-a	.	.
8A\	.	8A\	.	4A/	.	(16a\LL	.	4r	.	4r	.	8a\	et	8cc#\	et	.	.
.	.	.	.	.	.	16b\	.	.	.	.	.	.	.	.	.	.	.
8A\	.	8A\	.	.	.	16cc#\	.	.	.	.	.	8a\	di-	8cc#\	di-	.	.
.	.	.	.	.	.	16ddn\JJ)	.	.	.	.	.	.	.	.	.	.	.
8A\	.	8A\	.	4r	.	16ee|\LL	.	4r	.	4r	.	8a\	-vi-	8cc#\	-vi-	.	.
.	.	.	.	.	.	(16cc#\	.	.	.	.	.	.	.	.	.	.	.
8A\J	.	8A\J	.	.	.	16b\	.	.	.	.	.	8a\	-ti-	8cc#\	-ti-	.	.
.	.	.	.	.	.	16a\JJ)	.	.	.	.	.	.	.	.	.	.	.
=14	=14	=14	=14	=14	=14	=14	=14	=14	=14	=14	=14	=14	=14	=14	=14	=14	=14
8G#\L	6	8G#\L	.	16r	.	4b/	.	8G#\	et	8B\	et	2e\	-ae	2bn\	-a	2.ryy	2.ryy
.	.	.	.	(16e/LL	.	.	.	.	.	.	.	.	.	.	.	.	.
8G#\	.	8G#\	.	16f#/	.	.	.	8G#\	jus-	8B\	jus-	.	.	.	.	.	.
.	.	.	.	16g#/JJ)	.	.	.	.	.	.	.	.	.	.	.	.	.
8G#\	.	8G#\	.	(16an/LL	.	4e/	.	16G#\	-ti-	16B\	-ti-	.	.	.	.	.	.
.	.	.	.	16bn/	.	.	.	16G#\	-ti-	16B\	-ti-	.	.	.	.	.	.
8G#\	.	8G#\	.	16cc#/	.	.	.	8G#\	-a	8B\	-a	.	.	.	.	.	.
.	.	.	.	16dd#/JJ)	.	.	.	.	.	.	.	.	.	.	.	.	.
8G#\	.	8G#\	.	16ee|\LL	.	4r	.	8G#\	e-	8B\	e-	4e\	in	4b\	in	.	.
.	.	.	.	(16b\	.	.	.	.	.	.	.	.	.	.	.	.	.
8G#\J	.	8G#\J	.	16g#\	.	.	.	8G#\	-jus	8e\	-jus	.	.	.	.	.	.
.	.	.	.	16e\JJ)	.	.	.	.	.	.	.	.	.	.	.	.	.
!	!	!	!	!LO:LB:g=original	!	!	!	!	!	!	!	!	!	!	!	!	!
=15	=15	=15	=15	=15	=15	=15	=15	=15	=15	=15	=15	=15	=15	=15	=15	=15	=15
8A\L	.	8A\L	.	4cc#\	.	16r	.	4A\	ma-	4e\	ma-	2a\	do-	2cc#\	do-	2.ryy	2.ryy
.	.	.	.	.	.	(16e/LL	.	.	.	.	.	.	.	.	.	.	.
8A\	.	8A\	.	.	.	16f#/	.	.	.	.	.	.	.	.	.	.	.
.	.	.	.	.	.	16g#/JJ)	.	.	.	.	.	.	.	.	.	.	.
8A\	.	8A\	.	4A/	.	(16a\LL	.	8A\	-net	8e\	-net	.	.	.	.	.	.
.	.	.	.	.	.	16b\	.	.	.	.	.	.	.	.	.	.	.
!	!	!	!	!	!	!	!	!LO:SIC:v:t=custos A	!	!	!	!	!	!	!	!	!
8A\	.	8A\	.	.	.	16cc#\	.	8A\	in	8e\	in	.	.	.	.	.	.
.	.	.	.	.	.	16ddn\JJ)	.	.	.	.	.	.	.	.	.	.	.
!	!	!	!	!	!	!	!	!LO:LB:g=original	!	!LO:LB:g=original	!	!	!	!	!	!	!
8A\	.	8A\	.	4r	.	16ee|\LL	.	8A\	sae-	8e\	sae-	4a\	-mo	4cc#\	-mo	.	.
.	.	.	.	.	.	(16cc#\	.	.	.	.	.	.	.	.	.	.	.
8A\J	.	8A\J	.	.	.	16b\	.	16A\	-cu-	16e\	-cu-	.	.	.	.	.	.
.	.	.	.	.	.	16a\JJ)	.	16A\	-lum	16e\	-lum	.	.	.	.	.	.
=16	=16	=16	=16	=16	=16	=16	=16	=16	=16	=16	=16	=16	=16	=16	=16	=16	=16
!	!	!	!	!	!	!LO:TUP:b	!	!	!	!	!	!	!	!	!	!	!
!	!	!	!	!	!	!LO:TX:t=P:problem:kreska zamiast numeru	!	!	!	!	!	!	!	!	!	!	!
8E\L	.	8E\L	.	16r	.	12g#/L	.	4.E\	sae-	4.e\	sae-	2g#\	e-	2b\	e-	2.ryy	2.ryy
.	.	.	.	(16e/LL	.	.	.	.	.	.	.	.	.	.	.	.	.
.	.	.	.	.	.	12f#/	.	.	.	.	.	.	.	.	.	.	.
8E\	.	8E\	.	16f#/	.	.	.	.	.	.	.	.	.	.	.	.	.
.	.	.	.	.	.	12e/J	.	.	.	.	.	.	.	.	.	.	.
.	.	.	.	16g#/JJ)	.	.	.	.	.	.	.	.	.	.	.	.	.
8E\	.	8E\	.	(16a/LL	.	4e/	.	.	.	.	.	.	.	.	.	.	.
.	.	.	.	16b/	.	.	.	.	.	.	.	.	.	.	.	.	.
8E\	.	8E\	.	16cc#/	.	.	.	8E\	-cu-	8e\	-cu-	.	.	.	.	.	.
.	.	.	.	16dd#/JJ)	.	.	.	.	.	.	.	.	.	.	.	.	.
8E\	.	8E\	.	(16ee|\LL	.	4r	.	4E\	-li	4e\	-li	4g#\	-jus	4b\	-jus	.	.
.	.	.	.	16b\	.	.	.	.	.	.	.	.	.	.	.	.	.
8E\J	.	8E\J	.	16g#\)	.	.	.	.	.	.	.	.	.	.	.	.	.
.	.	.	.	16e\JJ	.	.	.	.	.	.	.	.	.	.	.	.	.
!	!	!	!	!	!	!LO:LB:g=original	!	!	!	!	!	!	!	!	!	!	!
=17	=17	=17	=17	=17	=17	=17	=17	=17	=17	=17	=17	=17	=17	=17	=17	=17	=17
4E\	.	4E\	.	4ee\	.	4gg#\	.	4E\	ma-	4B\	ma-	4g#\	ma-	4ee\	ma-	2.ryy	2.ryy
4B\	.	4B\	.	4dd#\	.	4ff#\	.	4B\	-net	4B\	-net	4f#\	-net	4dd#\	-net	.	.
8r	.	8r	.	8r	.	8r	.	8r	.	8r	.	8r	.	8r	.	.	.
8B\	.	8B\	.	8dd#\	.	8bb\	.	8B\	in	8d#\	in	8f#\	in	8dd#\	in	.	.
=18	=18	=18	=18	=18	=18	=18	=18	=18	=18	=18	=18	=18	=18	=18	=18	=18	=18
4F#\	7 #	4F#\	.	4cc#\	.	4ee\	.	8.F#\	sae-	8.B#X\	sae-	8.e\	sae-	8.cc#\	sae-	2.ryy	2.ryy
.	.	.	.	.	.	.	.	16BB/	-cu-	16F#/	-cu-	16d#\	-cu-	16b\	-cu-	.	.
4BB/	.	4BB/	.	4b\	.	4dd#\	.	4BB/	-lum	4F#/	-lum	4d#\	-lum	4b\	-lum	.	.
4r	.	4r	.	8r	.	8r	.	4r	.	4r	.	4r	.	4r	.	.	.
!	!	!	!	!	!LO:DY:t=p&colon;	!	!LO:DY:t=p&colon;	!	!	!	!	!	!	!	!	!	!
.	.	.	.	8dd#\	p	8bb\	p	.	.	.	.	.	.	.	.	.	.
!	!	!LO:LB:g=original	!	!	!	!	!	!	!	!	!	!	!	!	!	!	!
=19	=19	=19	=19	=19	=19	=19	=19	=19	=19	=19	=19	=19	=19	=19	=19	=19	=19
!	!	!	!	!	!	!	!	!LO:TX:a:t=2.	!	!LO:TX:a:t=2.	!	!LO:TX:a:t=4.	!	!LO:TX:a:t=2.	!	!	!
4E\	.	4E\	.	4ee\	.	4gg#\	.	1.r	.	1.r	.	0.r	.	1.r	.	2.ryy	2.ryy
4B\	.	4B\	.	4dd#\	.	4ff#\	.	.	.	.	.	.	.	.	.	.	.
4r	.	4r	.	8r	.	8r	.	.	.	.	.	.	.	.	.	.	.
.	.	.	.	8dd#\	.	8bb\	.	.	.	.	.	.	.	.	.	.	.
=20	=20	=20	=20	=20	=20	=20	=20	=20	=20	=20	=20	=20	=20	=20	=20	=20	=20
4F#\	7 #	4F#\	.	4cc#\	.	4ee\	.	.	.	.	.	.	.	.	.	2.ryy	2.ryy
4BB/	.	4BB/	.	4b\	.	4dd#\	.	.	.	.	.	.	.	.	.	.	.
4r	.	4r	.	4r	.	8r	.	.	.	.	.	.	.	.	.	.	.
.	.	.	.	.	.	8f#/	f	.	.	.	.	.	.	.	.	.	.
!LO:LB:g=original	!	!	!	!	!	!	!	!	!	!	!	!	!	!	!	!	!
=21	=21	=21	=21	=21	=21	=21	=21	=21	=21	=21	=21	=21	=21	=21	=21	=21	=21
4F#\	#	4F#\	.	8r	.	(32f#/LLL	.	4r	.	4r	.	.	.	(4f#/	ex-	2.ryy	2.ryy
.	.	.	.	.	.	32g#/JJ	.	.	.	.	.	.	.	.	.	.	.
.	.	.	.	.	.	8.a#X/J)	.	.	.	.	.	.	.	.	.	.	.
.	.	.	.	8f#/	f	.	.	.	.	.	.	.	.	.	.	.	.
4r	.	4r	.	(32f#/LLL	.	(32a#/LLL	.	4r	.	4F#/	ex-	.	.	4a#X\)	.	.	.
.	.	.	.	32g#/JJ	.	32b/JJ	.	.	.	.	.	.	.	.	.	.	.
.	.	.	.	8.a#X/J)	.	8.cc#/J)	.	.	.	.	.	.	.	.	.	.	.
4r	.	4r	.	(32a#\LLL	.	(32cc#\LLL	.	4F#\	in	4A#X/	.	.	.	4cc#\	.	.	.
.	.	.	.	32b\JJ	.	32dd#\JJ	.	.	.	.	.	.	.	.	.	.	.
.	.	.	.	8.cc#\J)	.	8.ee\J)	.	.	.	.	.	.	.	.	.	.	.
!	!	!	!	!	!	!	!	!	!	!	!	!	!	!LO:LB:g=original	!	!	!
=22	=22	=22	=22	=22	=22	=22	=22	=22	=22	=22	=22	=22	=22	=22	=22	=22	=22
*	*	*	*	*2\right	*	*2\right	*	*	*	*	*	*	*	*	*	*	*
8r	7 #	8r	.	2.cc#T\	.	2eeT\	.	2F#\	te-	2c#\	-or-	.	.	2ee\	-or-	2.ryy	2.ryy
8F#\L	.	8F#\L	.	.	.	.	.	.	.	.	.	.	.	.	.	.	.
8A#X\	.	8A#X\	.	.	.	.	.	.	.	.	.	.	.	.	.	.	.
8c#\	.	8c#\	.	.	.	.	.	.	.	.	.	.	.	.	.	.	.
8F#\	.	8F#\	.	.	.	8r	.	4F#\	-ne-	4c#\	-tum	.	.	4ee\	-tum	.	.
8A#X\J	.	8A#X\J	.	.	.	8f#/	.	.	.	.	.	.	.	.	.	.	.
!	!	!	!	!	!	!	!	!	!	!	!	!LO:LB:g=original	!	!	!	!	!
=23	=23	=23	=23	=23	=23	=23	=23	=23	=23	=23	=23	=23	=23	=23	=23	=23	=23
4B\	.	4B\	.	8.dd#\L	.	(32b\LLL	.	4B\	-bris	4B\	est	(4B/	lu-	4dd#\	est	2.ryy	2.ryy
.	.	.	.	.	.	32cc#\JJ	.	.	.	.	.	.	.	.	.	.	.
.	.	.	.	.	.	8.dd#\J)	.	.	.	.	.	.	.	.	.	.	.
.	.	.	.	16b\Jk	.	.	.	.	.	.	.	.	.	.	.	.	.
4r	.	4r	.	(32b\LLL	.	(32dd#\LLL	.	4r	.	4r	.	4d#\)	.	4r	.	.	.
.	.	.	.	32cc#\JJ	.	32ee\JJ	.	.	.	.	.	.	.	.	.	.	.
.	.	.	.	8.dd#\J)	.	8.ff#\J)	.	.	.	.	.	.	.	.	.	.	.
4r	.	4r	.	(32dd#\LLL	.	(32ff#\LLL	.	4r	.	4r	.	4f#\	-men	4r	.	.	.
.	.	.	.	32ee\JJ	.	32gg#\JJ	.	.	.	.	.	.	.	.	.	.	.
.	.	.	.	8.ff#\J)	.	8.aan\J)	.	.	.	.	.	.	.	.	.	.	.
=24	=24	=24	=24	=24	=24	=24	=24	=24	=24	=24	=24	=24	=24	=24	=24	=24	=24
8r	.	8r	.	2.ff#T\	.	2.aaT\	.	8r	.	8r	.	2.a\	rec-	8r	.	2.ryy	2.ryy
8BB/L	n7r	8BB/L	.	.	.	.	.	8BB/	mi-	8f#\	mi-	.	.	8dd#\	mi-	.	.
8D#/	.	8D#/	.	.	.	.	.	4.BB/	-se-	4.f#\	-se-	.	.	4.dd#\	-se-	.	.
8F#/	.	8F#/	.	.	.	.	.	.	.	.	.	.	.	.	.	.	.
8D#/	.	8D#/	.	.	.	.	.	.	.	.	.	.	.	.	.	.	.
8BB/J	.	8BB/J	.	.	.	.	.	8BB/	-ri-	8B\	-ri-	.	.	8dd#\	-ri	.	.
!	!	!	!	!LO:LB:g=original	!	!	!	!	!	!LO:LB:g=original	!	!	!	!	!	!	!
=25	=25	=25	=25	=25	=25	=25	=25	=25	=25	=25	=25	=25	=25	=25	=25	=25	=25
!	!	!	!	!LO:TX:t=P:problem:mixed beam	!	!	!	!	!	!	!	!	!	!	!	!	!
8r	.	8r	.	16ee|\LL	.	(16gg#\LL	.	2E\	-cors	2B\	-cors	2g#\	-tis	2ee\	cors	2.ryy	2.ryy
.	.	.	.	(16g#/	.	16b\	.	.	.	.	.	.	.	.	.	.	.
8E\L	.	8E\L	.	16a/	.	16cc#\	.	.	.	.	.	.	.	.	.	.	.
.	.	.	.	16b/JJ)	.	16dd#\JJ)	.	.	.	.	.	.	.	.	.	.	.
8G#\	.	8G#\	.	4e/	.	(16ee\LL	.	.	.	.	.	.	.	.	.	.	.
.	.	.	.	.	.	16ff#\	.	.	.	.	.	.	.	.	.	.	.
8B\	.	8B\	.	.	.	16gg#\	.	.	.	.	.	.	.	.	.	.	.
.	.	.	.	.	.	16aa\JJ)	.	.	.	.	.	.	.	.	.	.	.
8G#\	.	8G#\	.	4r	.	16bb|\LL	.	4E\	et	4B\	et	4g#\	et	4ee\	et	.	.
.	.	.	.	.	.	(16gg#\	.	.	.	.	.	.	.	.	.	.	.
8E\J	.	8E\J	.	.	.	16ff#\	.	.	.	.	.	.	.	.	.	.	.
.	.	.	.	.	.	16ee\JJ)	.	.	.	.	.	.	.	.	.	.	.
=26	=26	=26	=26	=26	=26	=26	=26	=26	=26	=26	=26	=26	=26	=26	=26	=26	=26
!LO:TX:t=P:problem:mixed beam	!	!LO:TX:t=P:problem:mixed beam	!	!	!	!	!	!	!	!	!	!	!	!	!	!	!
8BB/L	.	8BB/L	.	16r	.	(16ff#\LL	.	2B\	mi-	2B\	mi-	2f#\	mi-	2dd#\	mi-	2.ryy	2.ryy
.	.	.	.	16dd#\LL	.	16b\	.	.	.	.	.	.	.	.	.	.	.
8B\	.	8B\	.	16ee\	.	16cc#\	.	.	.	.	.	.	.	.	.	.	.
.	.	.	.	16ff#\JJ	.	16dd#\JJ)	.	.	.	.	.	.	.	.	.	.	.
8A#X\	.	8A#X\	.	4b\	.	(16ee\LL	.	.	.	.	.	.	.	.	.	.	.
.	.	.	.	.	.	16ff#\	.	.	.	.	.	.	.	.	.	.	.
8B\	.	8B\	.	.	.	16gg#\	.	.	.	.	.	.	.	.	.	.	.
.	.	.	.	.	.	16aa#X\JJ)	.	.	.	.	.	.	.	.	.	.	.
8BB/	.	8BB/	.	4r	.	16bb|\LL	.	4B\	-se-	4d#\	-se-	4f#\	-se-	4dd#\	-se-	.	.
.	.	.	.	.	.	(16ff#\	.	.	.	.	.	.	.	.	.	.	.
8B\J	.	8B\J	.	.	.	16ee\	.	.	.	.	.	.	.	.	.	.	.
.	.	.	.	.	.	16dd#\JJ)	.	.	.	.	.	.	.	.	.	.	.
!	!	!	!	!	!	!LO:LB:g=original	!	!LO:PB:g=original	!	!	!	!	!	!	!	!	!
=27	=27	=27	=27	=27	=27	=27	=27	=27	=27	=27	=27	=27	=27	=27	=27	=27	=27
!	!	!	!	!	!	!LO:TX:t=P:problem:mixed beam	!	!	!	!	!	!	!	!	!	!	!
8r	.	8r	.	16r	.	(16ee\LL	.	4.F#\	-ra-	4.A#X/	-ra-	4.e\	-ra-	4.cc#\	-ra-	2.ryy	2.ryy
.	.	.	.	16a#X/LL	.	16f#/	.	.	.	.	.	.	.	.	.	.	.
8F#\L	7 #	8F#\L	.	16b/	.	16g#/	.	.	.	.	.	.	.	.	.	.	.
.	.	.	.	16cc#/JJ	.	16a#X/JJ)	.	.	.	.	.	.	.	.	.	.	.
8A#X\	.	8A#X\	.	4f#/	.	(16cc#\LL	.	.	.	.	.	.	.	.	.	.	.
.	.	.	.	.	.	16dd#\	.	.	.	.	.	.	.	.	.	.	.
8c#\	.	8c#\	.	.	.	16ee\	.	8F#\	-tor	8A#/	-tor	8e\	-tor	8cc#\	-tor	.	.
.	.	.	.	.	.	16ff#\JJ)	.	.	.	.	.	.	.	.	.	.	.
8A#\	.	8A#\	.	4r	.	16gg#|\LL	.	4F#\	et	4A#/	et	4e\	et	4cc#\	et	.	.
.	.	.	.	.	.	(16ee\	.	.	.	.	.	.	.	.	.	.	.
8F#\J	.	8F#\J	.	.	.	16dd#\	.	.	.	.	.	.	.	.	.	.	.
.	.	.	.	.	.	16cc#\JJ)	.	.	.	.	.	.	.	.	.	.	.
=28	=28	=28	=28	=28	=28	=28	=28	=28	=28	=28	=28	=28	=28	=28	=28	=28	=28
4B\	.	4B\	.	4f#/	.	(32dd#\LLL	.	4B\	jus-	2.F#/	jus-	4d#\	jus-	4b\	jus-	2.ryy	2.ryy
.	.	.	.	.	.	32cc#\JJ	.	.	.	.	.	.	.	.	.	.	.
.	.	.	.	.	.	8.b\J)	.	.	.	.	.	.	.	.	.	.	.
.	.	.	.	.	.	8qqdd#/	.	.	.	.	.	.	.	.	.	.	.
4F#\	#	4F#\	.	2a#Xt/	.	2cc#T\	.	2F#\	.	.	.	2c#/	.	2a#Xt\	.	.	.
4FF#/	.	4FF#/	.	.	.	.	.	.	.	.	.	.	.	.	.	.	.
=29	=29	=29	=29	=29	=29	=29	=29	=29	=29	=29	=29	=29	=29	=29	=29	=29	=29
8r	.	8r	.	2b\	.	2b\	.	2BB/	-tus	2F#/	-tus	2d#\	-tus	2b\	-tus	2.ryy	2.ryy
8BB|/L	.	8BB|/L	.	.	.	.	.	.	.	.	.	.	.	.	.	.	.
8D#|/	.	8D#|/	.	.	.	.	.	.	.	.	.	.	.	.	.	.	.
8BB|/	.	8BB|/	.	.	.	.	.	.	.	.	.	.	.	.	.	.	.
8F#|/	.	8F#|/	.	4r	.	4r	.	4r	.	4r	.	4r	.	4r	.	.	.
8E|/J	.	8E|/J	.	.	.	.	.	.	.	.	.	.	.	.	.	.	.
!LO:LB:g=original	!	!	!	!	!	!	!	!	!	!	!	!	!	!	!	!	!
=30	=30	=30	=30	=30	=30	=30	=30	=30	=30	=30	=30	=30	=30	=30	=30	=30	=30
!LO:TX:b:i:t=Solo.	!	!LO:TX:a:i:t=Solo.	!	!	!	!	!	!	!	!LO:TX:a:t=2.	!	!LO:TX:a:t=1.	!	!	!	!	!
4An\	4 2	4An\	.	4r	.	16r	.	4r	.	1.r	.	2.r	.	2.dd#\	ju-	2.ryy	2.ryy
!	!	!	!	!	!	!	!LO:DY:t=pia	!	!	!	!	!	!	!	!	!	!
.	.	.	.	.	.	16dd#\LL	p	.	.	.	.	.	.	.	.	.	.
.	.	.	.	.	.	16ee\	.	.	.	.	.	.	.	.	.	.	.
.	.	.	.	.	.	16ff#\JJ	.	.	.	.	.	.	.	.	.	.	.
4A\	.	4A\	.	4r	.	4b\	.	8r	.	.	.	.	.	.	.	.	.
.	.	.	.	.	.	.	.	8A\	qui	.	.	.	.	.	.	.	.
4A\	.	4A\	.	16r	.	4r	.	8A\	mi-	.	.	.	.	.	.	.	.
.	.	.	.	16dd#\LL	.	.	.	.	.	.	.	.	.	.	.	.	.
!	!	!	!	!	!LO:DY:t=pia	!	!	!	!	!	!	!	!	!	!	!	!
.	.	.	.	16ee\	p	.	.	8A\	-se-	.	.	.	.	.	.	.	.
.	.	.	.	16ff#\JJ	.	.	.	.	.	.	.	.	.	.	.	.	.
!	!	!LO:LB:g=original	!	!	!	!	!	!	!	!	!	!	!	!	!	!	!
=31	=31	=31	=31	=31	=31	=31	=31	=31	=31	=31	=31	=31	=31	=31	=31	=31	=31
4G#\	6	4G#\	.	4b/	.	16r	.	2G#\	-re-	.	.	4e\	dis-	2ee\	-cun-	2.ryy	2.ryy
.	.	.	.	.	.	16ee\LL	.	.	.	.	.	.	.	.	.	.	.
.	.	.	.	.	.	16ff#\	.	.	.	.	.	.	.	.	.	.	.
.	.	.	.	.	.	16gg#\JJ	.	.	.	.	.	.	.	.	.	.	.
4G#\	.	4G#\	.	4r	.	4b\	.	.	.	.	.	8e\	-po-	.	.	.	.
.	.	.	.	.	.	.	.	.	.	.	.	8e\	-net	.	.	.	.
4G#\	.	4G#\	.	16r	.	4r	.	8G#\	-tur	.	.	4e\	ser-	4ee\	-dus	.	.
.	.	.	.	16ee\LL	.	.	.	.	.	.	.	.	.	.	.	.	.
.	.	.	.	16ff#\	.	.	.	8G#\	et	.	.	.	.	.	.	.	.
.	.	.	.	16gg#\JJ	.	.	.	.	.	.	.	.	.	.	.	.	.
=32	=32	=32	=32	=32	=32	=32	=32	=32	=32	=32	=32	=32	=32	=32	=32	=32	=32
.	.	.	.	.	.	.	.	.	.	.	.	.	.	8qqb/	.	.	.
4D#\	6 5	4D#/	.	4b/	.	16r	.	2D#/	com-	2B\	in	2f#\	-mo-	2.a\	do-	2.ryy	2.ryy
.	.	.	.	.	.	16ff#\LL	.	.	.	.	.	.	.	.	.	.	.
.	.	.	.	.	.	16gg#\	.	.	.	.	.	.	.	.	.	.	.
.	.	.	.	.	.	16aa\JJ	.	.	.	.	.	.	.	.	.	.	.
4D#\	.	4D#/	.	4r	.	4b\	.	.	.	.	.	.	.	.	.	.	.
4D#\	.	4D#/	.	16r	.	4r	.	4D#/	-(m)o-	4B\	ju-	4f#\	-nes	.	.	.	.
.	.	.	.	16ff#\LL	.	.	.	.	.	.	.	.	.	.	.	.	.
.	.	.	.	16gg#\	.	.	.	.	.	.	.	.	.	.	.	.	.
.	.	.	.	16aa\JJ	.	.	.	.	.	.	.	.	.	.	.	.	.
=33	=33	=33	=33	=33	=33	=33	=33	=33	=33	=33	=33	=33	=33	=33	=33	=33	=33
2E\	.	2E\	.	16gg#|\LL	.	8gg#\L	.	4E\	-dat	8B\	-di-	4e\	su-	4g#/	-mo	2.ryy	2.ryy
.	.	.	.	(16ee\	.	.	.	.	.	.	.	.	.	.	.	.	.
.	.	.	.	16dd#\	.	16ff#\L	.	.	.	8B\	-ci-	.	.	.	.	.	.
.	.	.	.	16cc#\JJ)	.	16ee\JJ	.	.	.	.	.	.	.	.	.	.	.
.	.	.	.	8b/L	.	8dd#\L	.	4r	.	4B\	-o	4e\	-os	4r	.	.	.
.	.	.	.	8a/	.	8cc#\	.	.	.	.	.	.	.	.	.	.	.
4r	.	4r	.	8g#/	.	8b\	.	4r	.	4r	.	4r	.	4r	.	.	.
.	.	.	.	8f#/J	.	8a\J	.	.	.	.	.	.	.	.	.	.	.
!	!	!	!	!LO:LB:g=original	!	!	!	!	!	!	!	!	!	!	!	!	!
=34	=34	=34	=34	=34	=34	=34	=34	=34	=34	=34	=34	=34	=34	=34	=34	=34	=34
!	!	!	!	!	!	!	!	!LO:TX:a:t=7.	!	!LO:TX:a:t=1.	!	!	!	!LO:TX:a:t=4.	!	!	!
4dn\	2	4dn\	.	4e/	.	16g#|\LL	.	0.r	.	2.r	.	4r	.	0.r	.	2.ryy	2.ryy
.	.	.	.	.	.	(16gg#\	.	.	.	.	.	.	.	.	.	.	.
.	.	.	.	.	.	16aa\	.	.	.	.	.	.	.	.	.	.	.
.	.	.	.	.	.	16bb\JJ)	.	.	.	.	.	.	.	.	.	.	.
4d\	.	4d\	.	4r	.	4ee\	.	.	.	.	.	4g#\	qui-	.	.	.	.
4d\	.	4d\	.	16r	.	4r	.	.	.	.	.	4g#\	-a	.	.	.	.
.	.	.	.	16g#/LL	.	.	.	.	.	.	.	.	.	.	.	.	.
.	.	.	.	16a/	.	.	.	.	.	.	.	.	.	.	.	.	.
.	.	.	.	16b/JJ	.	.	.	.	.	.	.	.	.	.	.	.	.
!	!	!	!	!	!	!	!	!	!	!	!	!LO:LB:g=original	!	!	!	!	!
=35	=35	=35	=35	=35	=35	=35	=35	=35	=35	=35	=35	=35	=35	=35	=35	=35	=35
4c#\	6	4c#\	.	4e/	.	16r	.	.	.	4r	.	2a\	in	.	.	2.ryy	2.ryy
.	.	.	.	.	.	16a/LL	.	.	.	.	.	.	.	.	.	.	.
.	.	.	.	.	.	16b/	.	.	.	.	.	.	.	.	.	.	.
.	.	.	.	.	.	16cc#/JJ	.	.	.	.	.	.	.	.	.	.	.
4c#\	.	4c#\	.	4r	.	4e/	.	.	.	4r	.	.	.	.	.	.	.
4c#\	.	4c#\	.	16r	.	4r	.	.	.	4e\	non	4a\	ae-	.	.	.	.
.	.	.	.	16a\LL	.	.	.	.	.	.	.	.	.	.	.	.	.
.	.	.	.	16b\	.	.	.	.	.	.	.	.	.	.	.	.	.
.	.	.	.	16cc#\JJ	.	.	.	.	.	.	.	.	.	.	.	.	.
=36	=36	=36	=36	=36	=36	=36	=36	=36	=36	=36	=36	=36	=36	=36	=36	=36	=36
4G#\	6 -5	4G#\	.	4e/	.	16r	.	.	.	2e\	com-	2.ddn\	-ter-	.	.	2.ryy	2.ryy
.	.	.	.	.	.	16b\LL	.	.	.	.	.	.	.	.	.	.	.
.	.	.	.	.	.	16cc#\	.	.	.	.	.	.	.	.	.	.	.
.	.	.	.	.	.	16ddn\JJ	.	.	.	.	.	.	.	.	.	.	.
4G#\	.	4G#\	.	4r	.	4e/	.	.	.	.	.	.	.	.	.	.	.
4G#\	.	4G#\	.	16r	.	4r	.	.	.	4e\	-(m)o-	.	.	.	.	.	.
.	.	.	.	16b\LL	.	.	.	.	.	.	.	.	.	.	.	.	.
.	.	.	.	16cc#\	.	.	.	.	.	.	.	.	.	.	.	.	.
.	.	.	.	16ddn\JJ	.	.	.	.	.	.	.	.	.	.	.	.	.
!	!	!	!	!	!	!LO:LB:g=original	!	!	!	!	!	!	!	!	!	!	!
=37	=37	=37	=37	=37	=37	=37	=37	=37	=37	=37	=37	=37	=37	=37	=37	=37	=37
2A\	.	2A\	.	16cc#|\LL	.	8cc#\L	.	.	.	8e\	-ve-	4cc#\	-num	.	.	2.ryy	2.ryy
.	.	.	.	(16a\	.	.	.	.	.	.	.	.	.	.	.	.	.
.	.	.	.	16b\	.	16ddn\L	.	.	.	8e\	-bi-	.	.	.	.	.	.
.	.	.	.	16cc#\JJ)	.	16ee\JJ	.	.	.	.	.	.	.	.	.	.	.
.	.	.	.	8ddn\L	.	8ff#\L	.	.	.	4e\	-tur	4r	.	.	.	.	.
.	.	.	.	8ee\	.	8gg#\	.	.	.	.	.	.	.	.	.	.	.
4r	.	4r	.	8ff#\	.	8aa\	.	.	.	4r	.	4r	.	.	.	.	.
.	.	.	.	8gg#\J	.	8bb\J	.	.	.	.	.	.	.	.	.	.	.
!	!	!	!	!	!	!	!	!	!	!LO:PB:g=original	!	!	!	!LO:LB:g=original	!	!	!
=38	=38	=38	=38	=38	=38	=38	=38	=38	=38	=38	=38	=38	=38	=38	=38	=38	=38
!LO:TX:b:i:t=tutti.	!	!LO:TX:b:i:t=Tutti.	!	!	!LO:DY:rj	!	!	!	!	!LO:TX:a:t=2.	!	!LO:TX:a:t=1.	!	!	!	!	!
4A\	.	4A\	.	4aa\	f	8ccc#\	f	1.r	.	1.r	.	2.r	.	2cc#\	in	2.ryy	2.ryy
.	.	.	.	.	.	4ccc#\	.	.	.	.	.	.	.	.	.	.	.
4A\	.	4A\	.	4r	.	.	.	.	.	.	.	.	.	.	.	.	.
.	.	.	.	.	.	4ccc#\	.	.	.	.	.	.	.	.	.	.	.
4A\	.	4A\	.	4ee\	.	.	.	.	.	.	.	.	.	4cc#\	me-	.	.
.	.	.	.	.	.	[8ccc#\	.	.	.	.	.	.	.	.	.	.	.
=39	=39	=39	=39	=39	=39	=39	=39	=39	=39	=39	=39	=39	=39	=39	=39	=39	=39
4D#X/	7	4D#X/	.	8ff#\	.	8ccc#\L]	.	.	.	.	.	4.f#\	ab	4.cc#\	-mo-	2.ryy	2.ryy
.	.	.	.	4ff#\	.	16bb\L	.	.	.	.	.	.	.	.	.	.	.
.	.	.	.	.	.	16aa\JJ	.	.	.	.	.	.	.	.	.	.	.
4D#/	.	4D#/	.	.	.	8gg#\L	.	.	.	.	.	.	.	.	.	.	.
.	.	.	.	4ff#\	.	8ff#\	.	.	.	.	.	8f#\	au-	8cc#\	-ri-	.	.
4D#/	.	4D#/	.	.	.	8ee\	.	.	.	.	.	8f#\	-di-	4cc#\	-a	.	.
.	.	.	.	[8ff#\	.	8dd#X\J	.	.	.	.	.	8f#\	-ti-	.	.	.	.
=40	=40	=40	=40	=40	=40	=40	=40	=40	=40	=40	=40	=40	=40	=40	=40	=40	=40
4G#\	7	4G#\	.	8ff#\L]	.	8bb\	.	2.r	.	4G#/	pa-	2f#\	-o-	4b\	ae-	2.ryy	2.ryy
.	.	.	.	16ee\L	.	4bb\	.	.	.	.	.	.	.	.	.	.	.
.	.	.	.	16dd#X\JJ	.	.	.	.	.	.	.	.	.	.	.	.	.
4G#\	.	4G#\	.	8cc#\L	.	.	.	.	.	8G#/	-ra-	.	.	4b\	-ter-	.	.
.	.	.	.	8b\	.	4bb\	.	.	.	8G#/	-tu(m)	.	.	.	.	.	.
4G#\	.	4G#\	.	8a\	.	.	.	.	.	4G#/	cor	4f#\	-ne	4b\	-na	.	.
.	.	.	.	8g#\J	.	[8bb\	.	.	.	.	.	.	.	.	.	.	.
=41	=41	=41	=41	=41	=41	=41	=41	=41	=41	=41	=41	=41	=41	=41	=41	=41	=41
4C#/	7	4C#/	.	8ee\	.	8bb\L]	.	4.C#/	con-	2G#/	e-	2.e\	ma-	2b\	e-	2.ryy	2.ryy
.	.	.	.	4ee\	.	16aa\L	.	.	.	.	.	.	.	.	.	.	.
.	.	.	.	.	.	16gg#\JJ	.	.	.	.	.	.	.	.	.	.	.
4C#/	.	4C#/	.	.	.	8ff#\L	.	.	.	.	.	.	.	.	.	.	.
.	.	.	.	4ee\	.	8ee\	.	8C#/	-fir-	.	.	.	.	.	.	.	.
4C#/	.	4C#/	.	.	.	8dd#\	.	8C#/	-ma-	4G#/	-jus	.	.	4b\	-rit	.	.
.	.	.	.	[8ee\	.	8cc#\J	.	8C#/	-tum	.	.	.	.	.	.	.	.
!	!	!	!	!	!	!	!	!LO:LB:g=original	!	!	!	!	!	!	!	!	!
=42	=42	=42	=42	=42	=42	=42	=42	=42	=42	=42	=42	=42	=42	=42	=42	=42	=42
4F#\	7	4F#\	.	8ee\L]	.	8aa\	.	2F#\	est	8r	.	2.e\	-la	2.a\	jus-	2.ryy	2.ryy
.	.	.	.	16dd#\L	.	4aa\	.	.	.	8F#/	spe-	.	.	.	.	.	.
.	.	.	.	16cc#\JJ	.	.	.	.	.	.	.	.	.	.	.	.	.
4F#\	.	4F#\	.	8b/L	.	.	.	.	.	4F#/	-ra-	.	.	.	.	.	.
.	.	.	.	8a/	.	4aa\	.	.	.	.	.	.	.	.	.	.	.
4F#\	.	4F#\	.	8g#/	.	.	.	4F#\	cor	8F#/	-re	.	.	.	.	.	.
.	.	.	.	8f#/J	.	[8aa\	.	.	.	8F#/	in	.	.	.	.	.	.
!	!	!	!	!LO:LB:g=original	!	!	!	!	!	!	!	!	!	!	!	!	!
=43	=43	=43	=43	=43	=43	=43	=43	=43	=43	=43	=43	=43	=43	=43	=43	=43	=43
4BB/	7	4BB/	.	8dd#\	.	8aa\L]	.	2BB/	e-	4.F#/	Do-	2.d#\	non	2.a\	-tus	2.ryy	2.ryy
.	.	.	.	4dd#\	.	16gg#\L	.	.	.	.	.	.	.	.	.	.	.
.	.	.	.	.	.	16ff#\JJ	.	.	.	.	.	.	.	.	.	.	.
4BB/	.	4BB/	.	.	.	8ee\L	.	.	.	.	.	.	.	.	.	.	.
.	.	.	.	4dd#\	.	8dd#\	.	.	.	8F#/	-mi-	.	.	.	.	.	.
4BB/	.	4BB/	.	.	.	8cc#\	.	4BB/	-jus	4B\	-no	.	.	.	.	.	.
.	.	.	.	8dd#\	.	8b\J	.	.	.	.	.	.	.	.	.	.	.
!LO:LB:g=original	!	!	!	!	!	!	!	!	!	!	!	!	!	!	!	!	!
=44	=44	=44	=44	=44	=44	=44	=44	=44	=44	=44	=44	=44	=44	=44	=44	=44	=44
*	*	*	*	*	*	*	*	*	*	*	*	*	*ij	*	*	*	*
4E\	.	4E\	.	(4ee\	.	4gg#\	.	4E\	non	4B\	non	(4e\	non	(4g#\	non	2.ryy	2.ryy
*	*	*	*	*	*	*	*	*	*	*	*	*	*Xij	*	*	*	*
4D#\	6 5	4D#\	.	4ff#\)	.	4aa\	.	4D#\	com-	4B\	com-	4f#\)	.	4a\)	.	.	.
4E\	.	4E\	.	4ee|\	.	4gg#\	.	4E\	-(m)o-	4B\	-(m)o-	4e\	ti-	4g#\	ti-	.	.
!	!	!LO:LB:g=original	!	!	!	!	!	!	!	!	!	!	!	!	!	!	!
=45	=45	=45	=45	=45	=45	=45	=45	=45	=45	=45	=45	=45	=45	=45	=45	=45	=45
.	.	.	.	.	.	8qqaa/	.	.	.	.	.	.	.	.	.	.	.
4B\	6 4	4B\	.	4ee\	.	4gg#\	.	8B\	-ve-	8B\	-ve-	4g#\	-me-	4ee\	-me-	2.ryy	2.ryy
.	.	.	.	.	.	.	.	8BB/	-bi-	8B\	-bi-	.	.	.	.	.	.
4BB/	5 3	4BB/	.	4dd#\	.	4ff#\	.	4BB/	-tur	4B\	-tur	4f#\	-bit	4dd#\	-bit	.	.
4r	.	4r	.	4r	.	16r	.	4r	.	4r	.	4r	.	4r	.	.	.
.	.	.	.	.	.	(32b\LLL	.	.	.	.	.	.	.	.	.	.	.
.	.	.	.	.	.	32cc#\	.	.	.	.	.	.	.	.	.	.	.
.	.	.	.	.	.	32dd#\	.	.	.	.	.	.	.	.	.	.	.
.	.	.	.	.	.	32ee\	.	.	.	.	.	.	.	.	.	.	.
.	.	.	.	.	.	32ff#\	.	.	.	.	.	.	.	.	.	.	.
.	.	.	.	.	.	32gg#\JJJ)	.	.	.	.	.	.	.	.	.	.	.
=46	=46	=46	=46	=46	=46	=46	=46	=46	=46	=46	=46	=46	=46	=46	=46	=46	=46
8B\L	7	8B\L	.	8ff#\	.	8aa\	.	4B\	do-	4d#\	do-	4a\	do-	4ff#\	do-	2.ryy	2.ryy
16A\L	.	16A\L	.	4ff#\	.	4aa\	.	.	.	.	.	.	.	.	.	.	.
16G#\JJ	.	16G#\JJ	.	.	.	.	.	.	.	.	.	.	.	.	.	.	.
8F#|\L	.	8F#|\L	.	.	.	.	.	4B\	-nec	4d#\	-nec	4a\	-nec	4ff#\	-nec	.	.
8E|\	.	8E|\	.	4ff#\	.	4aa\	.	.	.	.	.	.	.	.	.	.	.
8D#|\	.	8D#|\	.	.	.	.	.	4B\	des-	4d#\	des-	4a\	des-	4ff#\	des-	.	.
8C#|\J	.	8C#|\J	.	[8ff#\	.	[8aa\	.	.	.	.	.	.	.	.	.	.	.
=47	=47	=47	=47	=47	=47	=47	=47	=47	=47	=47	=47	=47	=47	=47	=47	=47	=47
2.BB/	7	2.BB/	.	8ff#\]	.	8aa\L]	.	4.B\	-pi-	4.d#\	-pi-	4.a\	-pi-	4.ff#\	-pi-	2.ryy	2.ryy
.	.	.	.	4a/	.	16gg#\L	.	.	.	.	.	.	.	.	.	.	.
.	.	.	.	.	.	16ff#\JJ	.	.	.	.	.	.	.	.	.	.	.
.	.	.	.	.	.	8ee\L	.	.	.	.	.	.	.	.	.	.	.
.	.	.	.	4a/	.	8dd#\	.	8B\	-ci-	8d#\	-ci-	8a\	-ci-	8ff#\	-ci-	.	.
.	.	.	.	.	.	8cc#\	.	4B\	-at	4d#\	-at	4a\	-at	4ff#\	-at	.	.
.	.	.	.	8dd#\	.	8b\J	.	.	.	.	.	.	.	.	.	.	.
!	!	!	!	!	!	!LO:LB:g=original	!	!	!	!	!	!LO:LB:g=original	!	!	!	!	!
=48	=48	=48	=48	=48	=48	=48	=48	=48	=48	=48	=48	=48	=48	=48	=48	=48	=48
4.AA#X/	-7r 5	4.AA#X/	.	16ee\LL	.	16ggn\LL	.	4.A#X\	i-	4.e\	i-	4.gn\	i-	4.ee\	i-	2.ryy	2.ryy
.	.	.	.	16ee\	.	16gg\	.	.	.	.	.	.	.	.	.	.	.
.	.	.	.	16cc#\	.	16ee\	.	.	.	.	.	.	.	.	.	.	.
.	.	.	.	16cc#\JJ	.	16ee\JJ	.	.	.	.	.	.	.	.	.	.	.
.	.	.	.	16gn/LL	.	16cc#\LL	.	.	.	.	.	.	.	.	.	.	.
.	.	.	.	16g/	.	16cc#\	.	.	.	.	.	.	.	.	.	.	.
8AA#/L	.	8AA#/L	.	16e/	.	16gn\	.	8A#\	-ni-	8c#\	-ni-	8g\	-ni-	8ee\	-ni-	.	.
.	.	.	.	16e/JJ	.	16g\JJ	.	.	.	.	.	.	.	.	.	.	.
8AA#/	.	8AA#/	.	16gn/LL	.	16cc#\LL	.	8A#\	-mi-	8c#\	-mi-	8g\	-mi-	8ee\	-mi-	.	.
.	.	.	.	16e/	.	16gn\	.	.	.	.	.	.	.	.	.	.	.
8AA#/J	.	8AA#/J	.	16e/	.	16g\	.	8A#\	-cos	8c#\	-cos	8g\	-cos	8ee\	-cos	.	.
.	.	.	.	16e/JJ	.	16g\JJ	.	.	.	.	.	.	.	.	.	.	.
=49	=49	=49	=49	=49	=49	=49	=49	=49	=49	=49	=49	=49	=49	=49	=49	=49	=49
!	!	!	!	!	!	!LO:SIC:v:s=4gn/	!	!	!	!	!	!LO:SIC:v:s=4gn\	!	!	!	!	!
4BB/	n6 4	4BB/	.	4e/	.	4g#/	.	4B\	su-	4B\	su-	4g#\	su-	4ee\	su-	2.ryy	2.ryy
8r	5 3	8r	.	4d#X/	.	4f#/	.	4BB/	-os	4B\	-os	4f#\	-os	4dd#\	-os	.	.
8B|\L	.	8B|\L	.	.	.	.	.	.	.	.	.	.	.	.	.	.	.
8D#|\	.	8D#|\	.	4r	.	4r	.	4r	.	4r	.	4r	.	4r	.	.	.
8F#|\J	.	8F#|\J	.	.	.	.	.	.	.	.	.	.	.	.	.	.	.
!	!	!	!	!	!	!	!	!LO:LB:g=original	!	!LO:LB:g=original	!	!	!	!	!	!	!
=50	=50	=50	=50	=50	=50	=50	=50	=50	=50	=50	=50	=50	=50	=50	=50	=50	=50
!	!	!	!	!LO:TX:a:t=1.	!	!	!	!	!	!	!	!	!	!	!	!	!
4BB/	.	4BB/	.	2.r	.	16r	.	4BB/	dis-	4r	.	4r	.	4r	.	2.ryy	2.ryy
.	.	.	.	.	.	(16b\LL	.	.	.	.	.	.	.	.	.	.	.
.	.	.	.	.	.	16cc#\	.	.	.	.	.	.	.	.	.	.	.
.	.	.	.	.	.	16dd#\JJ)	.	.	.	.	.	.	.	.	.	.	.
4C#/	6	4C#/	.	.	.	(16ee\LL	.	4C#/	-per-	4r	.	2a\	jus-	4r	.	.	.
.	.	.	.	.	.	16ff#\	.	.	.	.	.	.	.	.	.	.	.
.	.	.	.	.	.	16gg#X\	.	.	.	.	.	.	.	.	.	.	.
.	.	.	.	.	.	16aa\JJ)	.	.	.	.	.	.	.	.	.	.	.
4D#/	6	4D#/	.	.	.	16bb|\LL	.	4D#/	-sit	4B\	in	.	.	8ff#\	e-	.	.
.	.	.	.	.	.	(16aa\	.	.	.	.	.	.	.	.	.	.	.
.	.	.	.	.	.	16gg#\	.	.	.	.	.	.	.	8ff#\	-jus	.	.
.	.	.	.	.	.	16ff#\JJ)	.	.	.	.	.	.	.	.	.	.	.
!	!	!	!	!	!	!	!	!	!	!	!	!	!	!LO:LB:g=original	!	!	!
=51	=51	=51	=51	=51	=51	=51	=51	=51	=51	=51	=51	=51	=51	=51	=51	=51	=51
4E\	.	4E\	.	16r	.	4gg#\	.	(4E\	de-	4.B\	sae-	4.g#X\	-ti-	2ee\	ma-	2.ryy	2.ryy
.	.	.	.	(16e/LL	.	.	.	.	.	.	.	.	.	.	.	.	.
.	.	.	.	16f#/	.	.	.	.	.	.	.	.	.	.	.	.	.
.	.	.	.	16g#/JJ)	.	.	.	.	.	.	.	.	.	.	.	.	.
4F#\	7	4F#\	.	(16a/LL	.	4r	.	4F#\)	.	.	.	.	.	.	.	.	.
.	.	.	.	16b/	.	.	.	.	.	.	.	.	.	.	.	.	.
.	.	.	.	16cc#/	.	.	.	.	.	8B\	-cu-	8f#\	-ti-	.	.	.	.
.	.	.	.	16dd#/JJ)	.	.	.	.	.	.	.	.	.	.	.	.	.
4G#\	6	4G#\	.	16ee|/LL	.	4r	.	4G#\	-dit	4B\	-lum	4e\	-a	4ee\	-net	.	.
.	.	.	.	(16b/	.	.	.	.	.	.	.	.	.	.	.	.	.
.	.	.	.	16g#/	.	.	.	.	.	.	.	.	.	.	.	.	.
.	.	.	.	16e/JJ)	.	.	.	.	.	.	.	.	.	.	.	.	.
=52	=52	=52	=52	=52	=52	=52	=52	=52	=52	=52	=52	=52	=52	=52	=52	=52	=52
*	*	*	*	*	*	*	*	*	*ij	*	*	*	*	*	*	*	*
!	!	!	!	!	!	!	!	!	!	!LO:TX:a:t=1.	!	!	!	!	!	!	!
4BB/	7	4BB/	.	4d#/	.	16r	.	4BB/	de-	2.r	.	4a\	ma-	4r	.	2.ryy	2.ryy
.	.	.	.	.	.	(16b\LL	.	.	.	.	.	.	.	.	.	.	.
.	.	.	.	.	.	16cc#\	.	.	.	.	.	.	.	.	.	.	.
.	.	.	.	.	.	16dd#\JJ)	.	.	.	.	.	.	.	.	.	.	.
4C#/	6|	4C#/	.	4r	.	(16ee\LL	.	4C#/	-dit	.	.	4a\	-net	4r	.	.	.
*	*	*	*	*	*	*	*	*	*Xij	*	*	*	*	*	*	*	*
.	.	.	.	.	.	16ff#\	.	.	.	.	.	.	.	.	.	.	.
.	.	.	.	.	.	16gg#\	.	.	.	.	.	.	.	.	.	.	.
.	.	.	.	.	.	16aa\JJ)	.	.	.	.	.	.	.	.	.	.	.
4D#/	6 5	4D#/	.	4r	.	16bb|\LL	.	4D#/	pau-	.	.	4a\	in	4ff#\	in	.	.
.	.	.	.	.	.	(16aa\	.	.	.	.	.	.	.	.	.	.	.
.	.	.	.	.	.	16gg#\	.	.	.	.	.	.	.	.	.	.	.
.	.	.	.	.	.	16ff#\JJ)	.	.	.	.	.	.	.	.	.	.	.
=53	=53	=53	=53	=53	=53	=53	=53	=53	=53	=53	=53	=53	=53	=53	=53	=53	=53
4E\	.	4E\	.	16r	.	4gg#\	.	4.E\	-pe-	4.B\	sae-	4.g#\	sae-	4.ee\	sae-	2.ryy	2.ryy
.	.	.	.	(16e/LL	.	.	.	.	.	.	.	.	.	.	.	.	.
.	.	.	.	16f#/	.	.	.	.	.	.	.	.	.	.	.	.	.
.	.	.	.	16g#/JJ)	.	.	.	.	.	.	.	.	.	.	.	.	.
4F#\	7	4F#\	.	(16a/LL	.	4e/	.	.	.	.	.	.	.	.	.	.	.
.	.	.	.	16b/	.	.	.	.	.	.	.	.	.	.	.	.	.
.	.	.	.	16cc#/	.	.	.	8F#\	-ri-	8B\	-cu-	8f#\	-cu-	8ee\	-cu-	.	.
.	.	.	.	16dd#/JJ)	.	.	.	.	.	.	.	.	.	.	.	.	.
4G#\	6	4G#\	.	16ee|/LL	.	4r	.	4G#\	-bus	4B\	-li	4e\	-lum	4ee\	-lum	.	.
.	.	.	.	(16b/	.	.	.	.	.	.	.	.	.	.	.	.	.
.	.	.	.	16g#/	.	.	.	.	.	.	.	.	.	.	.	.	.
.	.	.	.	16e/JJ)	.	.	.	.	.	.	.	.	.	.	.	.	.
!	!	!	!	!LO:LB:g=original	!	!	!	!	!	!	!	!	!	!	!	!	!
=54	=54	=54	=54	=54	=54	=54	=54	=54	=54	=54	=54	=54	=54	=54	=54	=54	=54
!	!	!	!	!LO:TX:a:t=1.	!	!	!	!	!	!	!	!	!	!	!	!	!
4E\	.	4E\	.	2.r	.	16r	.	(4E\	cor-	4r	.	(4g#\	cor-	4r	.	2.ryy	2.ryy
.	.	.	.	.	.	(16e/LL	.	.	.	.	.	.	.	.	.	.	.
.	.	.	.	.	.	16f#/	.	.	.	.	.	.	.	.	.	.	.
.	.	.	.	.	.	16g#/JJ)	.	.	.	.	.	.	.	.	.	.	.
4F#\	n6	4F#\	.	.	.	(16a/LL	.	4F#\)	.	4r	.	4a\)	.	4ddn\	cor-	.	.
.	.	.	.	.	.	16b/	.	.	.	.	.	.	.	.	.	.	.
.	.	.	.	.	.	16cc#/	.	.	.	.	.	.	.	.	.	.	.
.	.	.	.	.	.	16ddn/JJ)	.	.	.	.	.	.	.	.	.	.	.
4G#\	6	4G#\	.	.	.	16ee|\LL	.	4G#\	-nu	8e\	cor-	4b\	-nu	4dd\	-nu	.	.
.	.	.	.	.	.	(16dd\	.	.	.	.	.	.	.	.	.	.	.
.	.	.	.	.	.	16cc#\	.	.	.	8e\	-nu	.	.	.	.	.	.
.	.	.	.	.	.	16b\JJ)	.	.	.	.	.	.	.	.	.	.	.
!LO:LB:g=original	!	!	!	!	!	!	!	!	!	!	!	!	!	!	!	!	!
=55	=55	=55	=55	=55	=55	=55	=55	=55	=55	=55	=55	=55	=55	=55	=55	=55	=55
4A\	.	4A\	.	16r	.	4cc#\	.	(4A\	e-	(4e\	e-	2e\	e-	4.cc#\	e-	2.ryy	2.ryy
.	.	.	.	(16a\LL	.	.	.	.	.	.	.	.	.	.	.	.	.
.	.	.	.	16b\	.	.	.	.	.	.	.	.	.	.	.	.	.
.	.	.	.	16cc#\JJ)	.	.	.	.	.	.	.	.	.	.	.	.	.
4B\	7	4B\	.	(16ddn\LL	.	4r	.	4B\)	.	4dn\)	.	.	.	.	.	.	.
.	.	.	.	16ee\	.	.	.	.	.	.	.	.	.	.	.	.	.
.	.	.	.	16ff#\	.	.	.	.	.	.	.	.	.	8b\	.	.	.
.	.	.	.	16gg#\JJ)	.	.	.	.	.	.	.	.	.	.	.	.	.
4c#\	6	4c#\	.	16aa|\LL	.	4r	.	4c#\	-jus	4c#\	-jus	4e\	-jus	4a\	-jus	.	.
.	.	.	.	(16ee\	.	.	.	.	.	.	.	.	.	.	.	.	.
.	.	.	.	16cc#\	.	.	.	.	.	.	.	.	.	.	.	.	.
.	.	.	.	16a\JJ)	.	.	.	.	.	.	.	.	.	.	.	.	.
=56	=56	=56	=56	=56	=56	=56	=56	=56	=56	=56	=56	=56	=56	=56	=56	=56	=56
4E\	n7r	4E\	.	4g#/	.	16r	.	(4E\	ex-	4r	.	(4g#\	ex-	2ddn\	ex-	2.ryy	2.ryy
.	.	.	.	.	.	(16e/LL	.	.	.	.	.	.	.	.	.	.	.
.	.	.	.	.	.	16f#/	.	.	.	.	.	.	.	.	.	.	.
.	.	.	.	.	.	16g#/JJ)	.	.	.	.	.	.	.	.	.	.	.
4F#\	n6r	4F#\	.	4r	.	(16a/LL	.	4F#\)	.	4r	.	4a\)	.	.	.	.	.
.	.	.	.	.	.	16b/	.	.	.	.	.	.	.	.	.	.	.
.	.	.	.	.	.	16cc#/	.	.	.	.	.	.	.	.	.	.	.
.	.	.	.	.	.	16ddn/JJ)	.	.	.	.	.	.	.	.	.	.	.
4G#\	n5r	4G#\	.	4r	.	16ee|\LL	.	4G#\	-al-	8e\	e-	4b\	-al-	4dd\	-al-	.	.
.	.	.	.	.	.	(16dd\	.	.	.	.	.	.	.	.	.	.	.
.	.	.	.	.	.	16cc#\	.	.	.	8e\	-xal-	.	.	.	.	.	.
.	.	.	.	.	.	16b\JJ)	.	.	.	.	.	.	.	.	.	.	.
!	!	!LO:LB:g=original	!	!	!	!LO:LB:g=original	!	!	!	!	!	!	!	!	!	!	!
=57	=57	=57	=57	=57	=57	=57	=57	=57	=57	=57	=57	=57	=57	=57	=57	=57	=57
4A\	7	4A\	.	16r	.	4cc#\	.	4.A\	-ta-	4.e\	-ta-	4.e\	-ta-	4.cc#\	-ta-	2.ryy	2.ryy
.	.	.	.	(16a\LL	.	.	.	.	.	.	.	.	.	.	.	.	.
.	.	.	.	16b\	.	.	.	.	.	.	.	.	.	.	.	.	.
.	.	.	.	16cc#\JJ)	.	.	.	.	.	.	.	.	.	.	.	.	.
4B\	n	4B\	.	(16ddn\LL	.	4A/	.	.	.	.	.	.	.	.	.	.	.
.	.	.	.	16ee\	.	.	.	.	.	.	.	.	.	.	.	.	.
.	.	.	.	16ff#\	.	.	.	8B\	-bi-	8dn\	-bi-	8e\	-bi-	8ddn\	-bi-	.	.
.	.	.	.	16gg#\JJ)	.	.	.	.	.	.	.	.	.	.	.	.	.
4c#\	6	4c#\	.	16aa|\LL	.	4r	.	4c#\	-tur	4c#\	-tur	4e\	-tur	4ee\	-tur	.	.
.	.	.	.	(16ee\	.	.	.	.	.	.	.	.	.	.	.	.	.
.	.	.	.	16cc#\	.	.	.	.	.	.	.	.	.	.	.	.	.
.	.	.	.	16a\JJ)	.	.	.	.	.	.	.	.	.	.	.	.	.
!	!	!	!	!	!	!	!	!	!	!	!	!LO:LB:g=original	!	!	!	!	!
=58	=58	=58	=58	=58	=58	=58	=58	=58	=58	=58	=58	=58	=58	=58	=58	=58	=58
4D#X/	6	4D#X/	.	4f#/	.	16r	.	4D#X/	in	4B\	in	4a\	in	4ff#\	in	2.ryy	2.ryy
.	.	.	.	.	.	(16b\LL	.	.	.	.	.	.	.	.	.	.	.
.	.	.	.	.	.	16cc#\	.	.	.	.	.	.	.	.	.	.	.
.	.	.	.	.	.	16dd#X\JJ)	.	.	.	.	.	.	.	.	.	.	.
4r	.	4r	.	4r	.	(16ee\LL	.	4r	.	4r	.	4r	.	4r	.	.	.
.	.	.	.	.	.	16ff#\	.	.	.	.	.	.	.	.	.	.	.
.	.	.	.	.	.	16gg#\	.	.	.	.	.	.	.	.	.	.	.
.	.	.	.	.	.	16aa\JJ)	.	.	.	.	.	.	.	.	.	.	.
4BB/	.	4BB/	.	4r	.	16bb|\LL	.	4r	.	4r	.	4r	.	4r	.	.	.
.	.	.	.	.	.	(16ff#\	.	.	.	.	.	.	.	.	.	.	.
.	.	.	.	.	.	16dd#\	.	.	.	.	.	.	.	.	.	.	.
.	.	.	.	.	.	16b\JJ)	.	.	.	.	.	.	.	.	.	.	.
!	!	!	!	!	!	!	!	!LO:LB:g=original	!	!	!	!	!	!	!	!	!
=59	=59	=59	=59	=59	=59	=59	=59	=59	=59	=59	=59	=59	=59	=59	=59	=59	=59
4E\	.	4E\	.	16r	.	4gg#\	.	4E\	in	4B\	in	4g#\	in	4ee\	in	2.ryy	2.ryy
.	.	.	.	(16b\LL	.	.	.	.	.	.	.	.	.	.	.	.	.
.	.	.	.	16cc#\	.	.	.	.	.	.	.	.	.	.	.	.	.
.	.	.	.	16dd#X\JJ)	.	.	.	.	.	.	.	.	.	.	.	.	.
4r	.	4r	.	(16ee\LL	.	4r	.	4r	.	4r	.	4r	.	4r	.	.	.
.	.	.	.	16ff#\	.	.	.	.	.	.	.	.	.	.	.	.	.
.	.	.	.	16gg#\	.	.	.	.	.	.	.	.	.	.	.	.	.
.	.	.	.	16aa\JJ)	.	.	.	.	.	.	.	.	.	.	.	.	.
4G#\	6	4G#\	.	16bb|\LL	.	4r	.	4r	.	4r	.	4r	.	4r	.	.	.
.	.	.	.	(16gg#\	.	.	.	.	.	.	.	.	.	.	.	.	.
.	.	.	.	16ee\	.	.	.	.	.	.	.	.	.	.	.	.	.
.	.	.	.	16b\JJ)	.	.	.	.	.	.	.	.	.	.	.	.	.
=60	=60	=60	=60	=60	=60	=60	=60	=60	=60	=60	=60	=60	=60	=60	=60	=60	=60
4A\	6 5	4A\	.	4cc#\	.	4aa\	.	4A\	in	4c#\	in	4f#\	in	4ee\	in	2.ryy	2.ryy
.	.	.	.	.	.	8qqgg#/	.	.	.	.	.	.	.	.	.	.	.
4B\	.	4B\	.	2dd#t\	.	2ff#T\	.	4.B\	glo-	4.B\	glo-	4.f#\	glo-	4.dd#X\	glo-	.	.
4BB/	.	4BB/	.	.	.	.	.	.	.	.	.	.	.	.	.	.	.
.	.	.	.	.	.	.	.	8BB/	-ri-	8B\	-ri-	8f#\	-ri-	8dd#\	-ri-	.	.
!	!	!	!	!	!	!	!	!	!	!LO:LB:g=original	!	!	!	!	!	!	!
=61	=61	=61	=61	=61	=61	=61	=61	=61	=61	=61	=61	=61	=61	=61	=61	=61	=61
8E\L	.	8E\L	.	2ee\	.	2ee\	.	2E\	-a	2B\	-a.	2g#\	-a	2ee\	-a	2.ryy	2.ryy
16G#\L	.	16G#\L	.	.	.	.	.	.	.	.	.	.	.	.	.	.	.
16F#\JJ	.	16F#\JJ	.	.	.	.	.	.	.	.	.	.	.	.	.	.	.
8E|\L	.	8E|\L	.	.	.	.	.	.	.	.	.	.	.	.	.	.	.
8D#|\	.	8D#|\	.	.	.	.	.	.	.	.	.	.	.	.	.	.	.
8C#|\	.	8C#|\	.	4r	.	4r	.	4r	.	4r	.	4r	.	4r	.	.	.
8BB#X|\J	.	8BB#X|\J	.	.	.	.	.	.	.	.	.	.	.	.	.	.	.
!	!	!	!	!	!	!	!	!	!	!	!	!	!	!LO:LB:g=original	!	!	!
=62	=62	=62	=62	=62	=62	=62	=62	=62	=62	=62	=62	=62	=62	=62	=62	=62	=62
!LO:TX:b:i:t=Solo.	!	!LO:TX:a:i:t=Solo.	!	!LO:TX:a:t=5.	!	!LO:TX:a:t=5.	!	!LO:TX:a:t=5.	!	!LO:TX:a:t=5.	!	!LO:TX:a:t=1.	!	!	!	!	!
2C#/	.	2C#/	.	0.r	.	0.r	.	0.r	.	0.r	.	2.r	.	4r	.	2.ryy	2.ryy
.	.	.	.	.	.	.	.	.	.	.	.	.	.	4g#/	pec-	.	.
4E\	6	4E\	.	.	.	.	.	.	.	.	.	.	.	[4cc#\	.	.	.
=63	=63	=63	=63	=63	=63	=63	=63	=63	=63	=63	=63	=63	=63	=63	=63	=63	=63
2G#\	4	2G#\	.	.	.	.	.	.	.	.	.	4r	.	4cc#\]	.	2.ryy	2.ryy
.	#	.	.	.	.	.	.	.	.	.	.	4d#\	et	8b#X\L	-ca-	.	.
.	.	.	.	.	.	.	.	.	.	.	.	.	.	8cc#\J	.	.	.
4BB#X/	6 5	4BB#X/	.	.	.	.	.	.	.	.	.	8f#\	i-	4dd#\	-tor	.	.
.	.	.	.	.	.	.	.	.	.	.	.	8f#\	-ras-	.	.	.	.
=64	=64	=64	=64	=64	=64	=64	=64	=64	=64	=64	=64	=64	=64	=64	=64	=64	=64
2.C#/	5 4	2.C#/	.	.	.	.	.	.	.	.	.	2f#\	-ce-	4r	.	2.ryy	2.ryy
.	.	.	.	.	.	.	.	.	.	.	.	.	.	4g#/	vi-	.	.
.	6 3	.	.	.	.	.	.	.	.	.	.	4e\	-tur	4ee\	.	.	.
=65	=65	=65	=65	=65	=65	=65	=65	=65	=65	=65	=65	=65	=65	=65	=65	=65	=65
2BBn/	4	2BBn/	.	.	.	.	.	.	.	.	.	4.f#\	den-	4ee\	-de-	2.ryy	2.ryy
.	3	.	.	.	.	.	.	.	.	.	.	.	.	8dd#\L	.	.	.
.	.	.	.	.	.	.	.	.	.	.	.	8g#\	-ti-	8ee\J	.	.	.
4BB/	7	4BB/	.	.	.	.	.	.	.	.	.	4a\	-bus	[4ff#\	.	.	.
=66	=66	=66	=66	=66	=66	=66	=66	=66	=66	=66	=66	=66	=66	=66	=66	=66	=66
2E\	4 9	2E\	.	2.r	.	2.r	.	2.r	.	2.r	.	4a\	su-	4ff#\]	.	2.ryy	2.ryy
.	3 8	.	.	.	.	.	.	.	.	.	.	8g#\L	.	8ee\L	.	.	.
.	.	.	.	.	.	.	.	.	.	.	.	8f#\J	.	8dd#\J	.	.	.
!LO:TX:b:i:t=tutti.	!	!LO:TX:b:i:t=Tutti	!	!	!	!	!	!	!	!	!	!	!	!	!	!	!
16B|\LL	.	16B|\LL	.	.	.	.	.	.	.	.	.	4g#\	-is	4ee\	-bit	.	.
16A|\	.	16A|\	.	.	.	.	.	.	.	.	.	.	.	.	.	.	.
16G#|\	.	16G#|\	.	.	.	.	.	.	.	.	.	.	.	.	.	.	.
16F#|\JJ	.	16F#|\JJ	.	.	.	.	.	.	.	.	.	.	.	.	.	.	.
!LO:LB:g=original	!	!	!	!	!	!	!	!	!	!	!	!	!	!	!	!	!
=67	=67	=67	=67	=67	=67	=67	=67	=67	=67	=67	=67	=67	=67	=67	=67	=67	=67
8E\L	.	8E\L	.	8e|/L	.	8e|/L	.	4.E\	fre-	4.B\	fre-	4.g#\	fre-	4.ee\	fre-	2.ryy	2.ryy
8B\	.	8B\	.	8b|/J	.	8b|/J	.	.	.	.	.	.	.	.	.	.	.
8G#\	6	8G#\	.	8g#|/L	.	8g#|/L	.	.	.	.	.	.	.	.	.	.	.
8B\	.	8B\	.	8b|/J	.	8b|/J	.	8E\	-met	8B\	-met	8g#\	-met	8ee\	-met	.	.
8E\	.	8E\	.	8e|/L	.	8e|/L	.	8E\	et	8B\	et	8g#\	et	8ee\	et	.	.
!	!	!	!	!	!	!	!	!	!	!	!	!LO:SIC:v:t=custos f	!	!	!	!	!
8B\J	.	8B\J	.	8b|/J	.	8b|/J	.	8E\	ta-	8B\	ta-	8g#\	ta-	8ee\	ta-	.	.
!	!	!	!	!	!	!	!	!	!	!	!	!LO:LB:g=original	!	!	!	!	!
=68	=68	=68	=68	=68	=68	=68	=68	=68	=68	=68	=68	=68	=68	=68	=68	=68	=68
8BB\L	.	8BB\L	.	8B|/L	.	8B|/L	.	2BB/	-bes-	2B\	-bes-	2f#\	-bes-	2dd#\	-bes-	2.ryy	2.ryy
8B\	.	8B\	.	8b|/J	.	8b|/J	.	.	.	.	.	.	.	.	.	.	.
8D#\	6	8D#\	.	8d#|/L	.	8d#|/L	.	.	.	.	.	.	.	.	.	.	.
8B\	.	8B\	.	8b|/J	.	8b|/J	.	.	.	.	.	.	.	.	.	.	.
8BB\	.	8BB\	.	8B|/L	.	8B|/L	.	4BB/	-cet	4B\	-cet	4f#\	-cet	4dd#\	-cet	.	.
8B\J	.	8B\J	.	8b|/J	.	8b|/J	.	.	.	.	.	.	.	.	.	.	.
!	!	!LO:LB:g=original	!	!LO:LB:g=original	!	!	!	!	!	!	!	!	!	!	!	!	!
=69	=69	=69	=69	=69	=69	=69	=69	=69	=69	=69	=69	=69	=69	=69	=69	=69	=69
8C#\L	5	8C#\L	.	8c#|/L	.	8c#|/L	.	4.C#/	fre-	4.G#/	fre-	4.e\	fre-	4.cc#\	fre-	2.ryy	2.ryy
8G#\	.	8G#\	.	8g#|/	.	8g#|/J	.	.	.	.	.	.	.	.	.	.	.
8E\	6	8E\	.	8e|/	.	8e|/L	.	.	.	.	.	.	.	.	.	.	.
8G#\	.	8G#\	.	8g#|/	.	8g#|/J	.	8C#/	-met	8G#/	-met	8e\	-met	8cc#\	-met	.	.
8C#\	.	8C#\	.	8c#|/	.	8c#|/L	.	8C#/	et	8G#/	et	8e\	et	8cc#\	et	.	.
8G#\J	.	8G#\J	.	8g#|/J	.	8g#|/J	.	8C#/	ta-	8G#/	ta-	8e\	ta-	8cc#\	ta-	.	.
=70	=70	=70	=70	=70	=70	=70	=70	=70	=70	=70	=70	=70	=70	=70	=70	=70	=70
!LO:TX:t=P:problem:mixed beam	!	!LO:TX:t=P:problem:mixed beam	!	!	!	!	!	!	!	!	!	!	!	!	!	!	!
8GG#/L	#	8GG#/L	.	8G#|/L	.	8G#/L	.	2GG#/	-bes-	2G#/	-bes-	2d#\	-bes-	2b#X\	-bes-	2.ryy	2.ryy
8G#\J	.	8G#\J	.	8g#|/J	.	8g#/J	.	.	.	.	.	.	.	.	.	.	.
!LO:TX:t=P:problem:mixed beam	!	!LO:TX:t=P:problem:mixed beam	!	!	!	!	!	!	!	!	!	!	!	!	!	!	!
8BB#X/L	6	8BB#X/L	.	8B#X|/L	.	8B#X/L	.	.	.	.	.	.	.	.	.	.	.
8G#\J	.	8G#\J	.	8g#|/J	.	8g#/J	.	.	.	.	.	.	.	.	.	.	.
!LO:TX:t=P:problem:mixed beam	!	!LO:TX:t=P:problem:mixed beam	!	!	!	!	!	!	!	!	!	!	!	!	!	!	!
8GG#/L	#	8GG#/L	.	8G#|/L	.	8G#/L	.	4GG#/	-cet	4G#/	-cet	4d#\	-cet	4b#\	-cet	.	.
8G#\J	.	8G#\J	.	8g#|/J	.	8g#/J	.	.	.	.	.	.	.	.	.	.	.
!	!	!	!	!	!	!	!	!	!	!	!	!	!	!LO:LB:g=original	!	!	!
=71	=71	=71	=71	=71	=71	=71	=71	=71	=71	=71	=71	=71	=71	=71	=71	=71	=71
!LO:TX:a:t=1.	!	!	!	!LO:TX:a:t=1.	!	!	!	!LO:TX:a:t=14.	!	!LO:TX:a:t=1.	!	!LO:TX:a:t=2.	!	!	!	!	!
2.r	.	2.r	.	2.r	.	4r	.	0.r	.	2.r	.	1.r	.	4r	.	2.ryy	2.ryy
!	!	!	!	!	!	!	!LO:DY:t=pian	!	!	!	!	!	!	!	!	!	!
.	.	.	.	.	.	4ff#\	p	.	.	.	.	.	.	4ff#\	de-	.	.
.	.	.	.	.	.	4dd#\	.	.	.	.	.	.	.	4dd#\	-si-	.	.
*clefC4	*	*clefC4	*	*	*	*	*	*	*	*	*	*	*	*	*	*	*
=72	=72	=72	=72	=72	=72	=72	=72	=72	=72	=72	=72	=72	=72	=72	=72	=72	=72
.	.	.	.	.	.	8qqcc#/	.	.	.	.	.	.	.	8qqcc#/	.	.	.
4r	.	4r	.	4r	.	2b#X/	.	.	.	4r	.	.	.	4.b#X\	-de-	2.ryy	2.ryy
!LO:TX:b:i:t=Solo.	!	!LO:TX:a:i:t=Solo	!	!	!LO:DY:t=pia	!	!	!	!	!	!	!	!	!	!	!	!
4f#\	4|	4f#\	.	4g#/	p	.	.	.	.	4f#\	pec-	.	.	.	.	.	.
.	.	.	.	.	.	.	.	.	.	.	.	.	.	8b#\	-ri-	.	.
4d#\	.	4d#\	.	[4f#/	.	4b#/	.	.	.	4d#\	-ca-	.	.	4b#\	-um	.	.
!	!	!	!	!	!	!LO:LB:g=original	!	!	!	!	!	!	!	!	!	!	!
=73	=73	=73	=73	=73	=73	=73	=73	=73	=73	=73	=73	=73	=73	=73	=73	=73	=73
2.B#X\	7	2.B#X\	.	4f#/]	.	(4aa\	.	.	.	2.B#X\	-to-	(4f#\	pec-	(4aan\	pec-	2.ryy	2.ryy
.	6	.	.	4g#/	.	4gg#\)	.	.	.	.	.	4g#\)	.	4gg#\)	.	.	.
.	7	.	.	4a/	.	4ff#|\	.	.	.	.	.	4a\	-ca-	4ff#\	-ca-	.	.
=74	=74	=74	=74	=74	=74	=74	=74	=74	=74	=74	=74	=74	=74	=74	=74	=74	=74
4c#\	.	4c#\	.	(4g#/	.	(4ee\	.	.	.	(4c#\	.	2g#\	-to-	(4ee\	-to-	2.ryy	2.ryy
4d#\	6|	4d#\	.	4f#/)	.	4dd#\)	.	.	.	4d#\)	.	.	.	4dd#\)	.	.	.
4e\	6	4e\	.	4e/	.	4cc#|\	.	.	.	4e\	-rum	4g#\	-rum	4cc#\	-rum	.	.
=75	=75	=75	=75	=75	=75	=75	=75	=75	=75	=75	=75	=75	=75	=75	=75	=75	=75
!	!	!	!	!	!	!LO:TX:t=P:problem:klamra łukowa	!	!	!	!	!	!	!	!	!	!	!
!	!	!	!	!	!	!LO:TUP:a	!	!	!	!	!	!	!	!	!	!	!
4F#/	6	4F#/	.	8a/L	.	12dd#\L	.	0.r	.	4F#/	pe-	(8a\L	per-	4dd#\	per-	2.ryy	2.ryy
.	.	.	.	.	.	12ee\	.	.	.	.	.	.	.	.	.	.	.
.	.	.	.	8f#/J	.	.	.	.	.	.	.	8f#\J)	.	.	.	.	.
.	.	.	.	.	.	12ff#\J	.	.	.	.	.	.	.	.	.	.	.
.	.	.	.	8qqe/	.	8qqcc#/	.	.	.	.	.	8qqe/	.	8qqcc#/	.	.	.
2G#/	#	2G#/	.	2d#t/	.	2b#Xt\	.	.	.	2G#/	-ri-	2d#t\	-i-	2b#Xt\	-i-	.	.
=76	=76	=76	=76	=76	=76	=76	=76	=76	=76	=76	=76	=76	=76	=76	=76	=76	=76
!LO:TX:t=P:problem:mixed beam	!	!LO:TX:t=P:problem:mixed beam	!	!LO:TX:t=P:problem:mixed beam	!	!LO:TX:t=P:problem:mixed beam	!	!	!	!	!	!	!	!	!	!	!
8C#/L	.	8C#/L	.	8c#|/L	.	8c#/L	.	.	.	2C#/	-bit.	2c#/	-bit	2cc#\	-bit	2.ryy	2.ryy
8c#|\	.	8c#|\	.	8cc#|\	.	8cc#\J	f	.	.	.	.	.	.	.	.	.	.
8B|\	.	8B|\	.	8bn|\	.	8bn|/L	.	.	.	.	.	.	.	.	.	.	.
8A|\	.	8A|\	.	8a|\	.	8a|/	.	.	.	.	.	.	.	.	.	.	.
8G#|\	.	8G#|\	.	8g#|\	.	8g#|/	.	.	.	4r	.	4r	.	4r	.	.	.
8F#|\J	.	8F#|\J	.	8f#|\J	.	8f#|/J	.	.	.	.	.	.	.	.	.	.	.
!LO:LB:g=original	!	!	!	!	!	!	!	!	!	!	!	!	!	!	!	!	!
=77	=77	=77	=77	=77	=77	=77	=77	=77	=77	=77	=77	=77	=77	=77	=77	=77	=77
2E/	.	2E/	.	2e/	.	2e/	.	.	.	4.e\	Glo-	4.g#\	glo-	4.bn\	glo-	2.ryy	2.ryy
.	.	.	.	.	.	.	.	.	.	8e\	-ri-	8g#\	-ri-	8b\	-ri-	.	.
4e\	.	4e\	.	4r	.	4r	.	.	.	4e\	-a	4g#\	-a	4b\	-a	.	.
=78	=78	=78	=78	=78	=78	=78	=78	=78	=78	=78	=78	=78	=78	=78	=78	=78	=78
!	!	!	!	!LO:TX:a:t=6.	!	!LO:TX:a:t=6.	!	!	!	!	!	!	!	!	!	!	!
4e\	4 2	4e\	.	0.r	.	0.r	.	.	.	4e\	Pa-	4f#\	Pa-	4a\	Pa-	2.ryy	2.ryy
4e\	.	4e\	.	.	.	.	.	.	.	4e\	-tri	4f#\	-tri	4a\	-tri	.	.
4r	.	4r	.	.	.	.	.	.	.	4r	.	4r	.	4r	.	.	.
!	!	!	!	!	!	!	!	!	!	!LO:LB:g=original	!	!	!	!	!	!	!
=79	=79	=79	=79	=79	=79	=79	=79	=79	=79	=79	=79	=79	=79	=79	=79	=79	=79
*	*	*	*	*	*	*	*	*	*	*	*ij	*	*ij	*	*ij	*	*
2d#\	6 5	2d#\	.	.	.	.	.	0.r	.	4d#\	Pa-	4f#\	Pa-	4a\	Pa-	2.ryy	2.ryy
.	.	.	.	.	.	.	.	.	.	4d#\	-tri	4f#\	-tri	4a\	-tri	.	.
*	*	*	*	*	*	*	*	*	*	*	*Xij	*	*Xij	*	*Xij	*	*
4d#\	.	4d#\	.	.	.	.	.	.	.	4d#\	et	4f#\	et	4a\	et	.	.
!	!	!LO:LB:g=original	!	!	!	!	!	!	!	!	!	!	!	!	!	!	!
=80	=80	=80	=80	=80	=80	=80	=80	=80	=80	=80	=80	=80	=80	=80	=80	=80	=80
4e\	4 9	4e\	.	.	.	.	.	.	.	8e\	Fi-	8f#\	Fi-	8a\	fi-	2.ryy	2.ryy
.	.	.	.	.	.	.	.	.	.	8E/	-li-	8e\	-li-	8g#/	-li-	.	.
4E/	3 8	4E/	.	.	.	.	.	.	.	4E/	-o	4e\	-o	4g#/	-o	.	.
4r	.	4r	.	.	.	.	.	.	.	4r	.	4r	.	4r	.	.	.
!	!	!	!	!	!	!	!	!	!	!	!	!LO:LB:g=original	!	!LO:LB:g=original	!	!	!
=81	=81	=81	=81	=81	=81	=81	=81	=81	=81	=81	=81	=81	=81	=81	=81	=81	=81
!LO:TX:a:t=1.	!	!	!	!	!	!	!	!	!	!LO:TX:a:t=1.	!	!	!	!	!	!	!
2.r	.	2.r	.	.	.	.	.	.	.	2.r	.	4r	.	4r	.	2.ryy	2.ryy
.	.	.	.	.	.	.	.	.	.	.	.	4g#\	et	4ee\	et	.	.
.	.	.	.	.	.	.	.	.	.	.	.	4e\	Spi-	4cc#\	Spi-	.	.
=82	=82	=82	=82	=82	=82	=82	=82	=82	=82	=82	=82	=82	=82	=82	=82	=82	=82
.	.	.	.	.	.	.	.	.	.	.	.	.	.	8qqb/	.	.	.
4r	.	4r	.	1.r	.	1.r	.	.	.	4r	.	4.f#\	-ri-	4.a#X\	-ri-	2.ryy	2.ryy
4e\	4| 2	4e\	.	.	.	.	.	.	.	4e\	San-	.	.	.	.	.	.
.	.	.	.	.	.	.	.	.	.	.	.	8f#\	-tu-	8a#\	-tu-	.	.
4d#\	6	4d#\	.	.	.	.	.	.	.	4d#\	.	4f#\	-i	4b\	-i	.	.
=83	=83	=83	=83	=83	=83	=83	=83	=83	=83	=83	=83	=83	=83	=83	=83	=83	=83
4e\	6 5	4e\	.	.	.	.	.	1.r	.	4e\	.	4g#\	San-	(8b\L	San-	2.ryy	2.ryy
.	.	.	.	.	.	.	.	.	.	.	.	.	.	8cc#\J)	.	.	.
4f#\	#	4f#\	.	.	.	.	.	.	.	4f#\	.	2a#X\	.	2cc#T\	.	.	.
4F#/	.	4F#/	.	.	.	.	.	.	.	4F#/	.	.	.	.	.	.	.
=84	=84	=84	=84	=84	=84	=84	=84	=84	=84	=84	=84	=84	=84	=84	=84	=84	=84
4B\	.	4B\	.	8r	.	8r	.	.	.	2B\	-cto	2b\	-cto	2b\	-cto	2.ryy	2.ryy
.	.	.	.	16dd#\LL	f	16ff#\LL	.	.	.	.	.	.	.	.	.	.	.
.	.	.	.	16cc#\JJ	.	16ee\JJ	.	.	.	.	.	.	.	.	.	.	.
*clefF4	*	*clefF4	*	*	*	*	*	*	*	*	*	*	*	*	*	*	*
!	!	!LO:TX:b:i:t=Tutti.	!	!	!	!	!	!	!	!	!	!	!	!	!	!	!
4r	.	4r	.	8b/L	.	8dd#\L	.	.	.	.	.	.	.	.	.	.	.
.	.	.	.	8a/	.	8cc#\	.	.	.	.	.	.	.	.	.	.	.
!LO:TX:b:i:t=tutti.	!	!	!	!	!	!	!	!	!	!	!	!	!	!	!	!	!
4D#/	6 5	4D#/	.	8g#/	.	8b\	.	.	.	4r	.	4r	.	4r	.	.	.
.	.	.	.	8f#/J	.	8a\J	.	.	.	.	.	.	.	.	.	.	.
=85	=85	=85	=85	=85	=85	=85	=85	=85	=85	=85	=85	=85	=85	=85	=85	=85	=85
8E\L	.	8E\L	.	4e/	.	(16g#\LL	.	4r	.	4r	.	4r	.	4r	.	2.ryy	2.ryy
.	.	.	.	.	.	16b\	.	.	.	.	.	.	.	.	.	.	.
8E\	.	8E\	.	.	.	16cc#\	.	.	.	.	.	.	.	.	.	.	.
.	.	.	.	.	.	16dd#\JJ)	.	.	.	.	.	.	.	.	.	.	.
8E\	.	8E\	.	4r	.	(16ee\LL	.	4E\	si-	4B\	si-	4g#\	Si-	4ee\	si-	.	.
.	.	.	.	.	.	16ff#\	.	.	.	.	.	.	.	.	.	.	.
8E\	.	8E\	.	.	.	16gg#\	.	.	.	.	.	.	.	.	.	.	.
.	.	.	.	.	.	16aa\JJ)	.	.	.	.	.	.	.	.	.	.	.
8E\	.	8E\	.	4r	.	16bb|\LL	.	4E\	-cut	4B\	-cut	4g#\	-cut	4ee\	-cut	.	.
.	.	.	.	.	.	(16gg#\	.	.	.	.	.	.	.	.	.	.	.
8E\J	.	8E\J	.	.	.	16ff#\	.	.	.	.	.	.	.	.	.	.	.
.	.	.	.	.	.	16ee\JJ)	.	.	.	.	.	.	.	.	.	.	.
=86	=86	=86	=86	=86	=86	=86	=86	=86	=86	=86	=86	=86	=86	=86	=86	=86	=86
!	!	!	!	!	!	!LO:TUP:a	!	!	!	!	!	!	!	!	!	!	!
!	!	!	!	!	!	!LO:TX:t=P:problem:klamra łukowa	!	!	!	!	!	!	!	!	!	!	!
8BB/L	.	8BB/L	.	16r	.	12dd#\L	.	2BB/	e-	2B\	e-	2f#\	e-	2dd#\	e-	2.ryy	2.ryy
.	.	.	.	(16b\LL	.	.	.	.	.	.	.	.	.	.	.	.	.
.	.	.	.	.	.	12cc#\	.	.	.	.	.	.	.	.	.	.	.
8BB/	.	8BB/	.	16cc#\	.	.	.	.	.	.	.	.	.	.	.	.	.
.	.	.	.	.	.	12b\J	.	.	.	.	.	.	.	.	.	.	.
.	.	.	.	16dd#\JJ)	.	.	.	.	.	.	.	.	.	.	.	.	.
8BB/	.	8BB/	.	(16ee\LL	.	4b\	.	.	.	.	.	.	.	.	.	.	.
.	.	.	.	16ff#\	.	.	.	.	.	.	.	.	.	.	.	.	.
8BB/	.	8BB/	.	16gg#\	.	.	.	.	.	.	.	.	.	.	.	.	.
.	.	.	.	16aa\JJ)	.	.	.	.	.	.	.	.	.	.	.	.	.
8BB/	.	8BB/	.	16bb|\LL	.	4r	.	4BB/	-rat	4B\	-rat	4f#\	-rat	4dd#\	-rat	.	.
.	.	.	.	(16ff#\	.	.	.	.	.	.	.	.	.	.	.	.	.
8BB/J	.	8BB/J	.	16dd#\	.	.	.	.	.	.	.	.	.	.	.	.	.
.	.	.	.	16b\JJ)	.	.	.	.	.	.	.	.	.	.	.	.	.
!	!	!	!	!LO:LB:g=original	!	!	!	!	!	!	!	!	!	!	!	!	!
=87	=87	=87	=87	=87	=87	=87	=87	=87	=87	=87	=87	=87	=87	=87	=87	=87	=87
8C#/L	5	8C#/L	.	4ee\	.	16r	.	4r	.	4r	.	4r	.	4r	.	2.ryy	2.ryy
.	.	.	.	.	.	(16g#/LL	.	.	.	.	.	.	.	.	.	.	.
8C#/	.	8C#/	.	.	.	16a#X/	.	.	.	.	.	.	.	.	.	.	.
.	.	.	.	.	.	16b#X/JJ)	.	.	.	.	.	.	.	.	.	.	.
8C#/	.	8C#/	.	4c#/	.	(16cc#\LL	.	4C#/	in	4G#/	in	4e\	in	4cc#\	in	.	.
.	.	.	.	.	.	16dd#\	.	.	.	.	.	.	.	.	.	.	.
8C#/	.	8C#/	.	.	.	16ee\	.	.	.	.	.	.	.	.	.	.	.
.	.	.	.	.	.	16ff#\JJ)	.	.	.	.	.	.	.	.	.	.	.
8C#/	.	8C#/	.	4r	.	16gg#|\LL	.	4C#/	prin-	4G#/	prin-	4e\	prin-	4cc#\	prin-	.	.
.	.	.	.	.	.	(16ee\	.	.	.	.	.	.	.	.	.	.	.
8C#/J	.	8C#/J	.	.	.	16dd#\	.	.	.	.	.	.	.	.	.	.	.
.	.	.	.	.	.	16cc#\JJ)	.	.	.	.	.	.	.	.	.	.	.
!LO:LB:g=original	!	!	!	!	!	!LO:LB:g=original	!	!	!	!	!	!	!	!	!	!	!
=88	=88	=88	=88	=88	=88	=88	=88	=88	=88	=88	=88	=88	=88	=88	=88	=88	=88
!	!	!	!	!	!	!LO:TUP:b	!	!	!	!	!	!	!	!	!	!	!
!	!	!	!	!	!	!LO:TX:t=P:problem:kreska zamiast numeru	!	!	!	!	!	!	!	!	!	!	!
8G#\L	#	8G#\L	.	16r	.	12b#X/L	.	4.G#\	-ci-	4.G#/	-ci-	4.d#\	-ci-	4.b#X\	-ci-	2.ryy	2.ryy
.	.	.	.	(16g#/LL	.	.	.	.	.	.	.	.	.	.	.	.	.
.	.	.	.	.	.	12a/	.	.	.	.	.	.	.	.	.	.	.
8G#\	.	8G#\	.	16a#X/	.	.	.	.	.	.	.	.	.	.	.	.	.
.	.	.	.	.	.	12g#/J	.	.	.	.	.	.	.	.	.	.	.
.	.	.	.	16b#X/JJ)	.	.	.	.	.	.	.	.	.	.	.	.	.
8G#\	.	8G#\	.	16cc#\LL	.	4g#/	.	.	.	.	.	.	.	.	.	.	.
.	.	.	.	(16dd#\	.	.	.	.	.	.	.	.	.	.	.	.	.
8G#\	.	8G#\	.	16ee\	.	.	.	8G#\	-pi-	8G#/	-pi-	8d#\	-pi-	8b#\	-pi-	.	.
.	.	.	.	16ff#\JJ)	.	.	.	.	.	.	.	.	.	.	.	.	.
8G#\	.	8G#\	.	16gg#|\LL	.	4r	.	4G#\	-o	4G#/	-o	4d#\	-o	4b#\	-o	.	.
.	.	.	.	(16dd#\	.	.	.	.	.	.	.	.	.	.	.	.	.
8G#\J	.	8G#\J	.	16b#X\	.	.	.	.	.	.	.	.	.	.	.	.	.
.	.	.	.	16g#\JJ)	.	.	.	.	.	.	.	.	.	.	.	.	.
!	!	!LO:LB:g=original	!	!	!	!	!	!	!	!	!	!	!	!	!	!	!
=89	=89	=89	=89	=89	=89	=89	=89	=89	=89	=89	=89	=89	=89	=89	=89	=89	=89
8A\L	5	8A\L	.	4cc#\	.	16r	.	4A\	et	4e\	et	4a\	et	4cc#\	et	2.ryy	2.ryy
.	.	.	.	.	.	(16e/LL	.	.	.	.	.	.	.	.	.	.	.
8A\	.	8A\	.	.	.	16f#/	.	.	.	.	.	.	.	.	.	.	.
.	.	.	.	.	.	16g#/JJ)	.	.	.	.	.	.	.	.	.	.	.
8A\	.	8A\	.	4A/	.	(16a\LL	.	4A\	nunc	4e\	nunc	4a\	nunc	4cc#\	nunc	.	.
.	.	.	.	.	.	16b\	.	.	.	.	.	.	.	.	.	.	.
8A\	.	8A\	.	.	.	16cc#\)	.	.	.	.	.	.	.	.	.	.	.
.	.	.	.	.	.	16dd#X|\JJ	.	.	.	.	.	.	.	.	.	.	.
8A\	.	8A\	.	4r	.	16ee|\LL	.	4A\	et	4e\	et	4a\	et	4cc#\	et	.	.
.	.	.	.	.	.	(16cc#\	.	.	.	.	.	.	.	.	.	.	.
8A\J	.	8A\J	.	.	.	16b\	.	.	.	.	.	.	.	.	.	.	.
.	.	.	.	.	.	16a\JJ)	.	.	.	.	.	.	.	.	.	.	.
=90	=90	=90	=90	=90	=90	=90	=90	=90	=90	=90	=90	=90	=90	=90	=90	=90	=90
!	!	!	!	!	!	!LO:TUP:b	!	!	!	!	!	!	!	!	!	!	!
!	!	!	!	!	!	!LO:TX:t=P:problem:kreska zamiast numeru	!	!	!	!	!	!	!	!	!	!	!
8E\L	.	8E\L	.	16r	.	12g#/L	.	2E\	sem-	2e\	sem-	2g#\	sem-	2bn\	sem-	2.ryy	2.ryy
.	.	.	.	(16e/LL	.	.	.	.	.	.	.	.	.	.	.	.	.
.	.	.	.	.	.	12f#/	.	.	.	.	.	.	.	.	.	.	.
8E\	.	8E\	.	16f#/	.	.	.	.	.	.	.	.	.	.	.	.	.
.	.	.	.	.	.	12e/J	.	.	.	.	.	.	.	.	.	.	.
.	.	.	.	16g#/JJ)	.	.	.	.	.	.	.	.	.	.	.	.	.
8E\	.	8E\	.	(16a/LL	.	4e/	.	.	.	.	.	.	.	.	.	.	.
.	.	.	.	16b/	.	.	.	.	.	.	.	.	.	.	.	.	.
8E\	.	8E\	.	16cc#/	.	.	.	.	.	.	.	.	.	.	.	.	.
.	.	.	.	16dd#/JJ)	.	.	.	.	.	.	.	.	.	.	.	.	.
8E\	.	8E\	.	16ee|/LL	.	4r	.	4E\	-per	4e\	-per	4g#\	-per	4b\	-per	.	.
.	.	.	.	(16b/	.	.	.	.	.	.	.	.	.	.	.	.	.
8E\J	.	8E\J	.	16g#/	.	.	.	.	.	.	.	.	.	.	.	.	.
.	.	.	.	16e/JJ)	.	.	.	.	.	.	.	.	.	.	.	.	.
!	!	!	!	!	!	!	!	!	!	!LO:LB:g=original	!	!	!	!LO:LB:g=original	!	!	!
=91	=91	=91	=91	=91	=91	=91	=91	=91	=91	=91	=91	=91	=91	=91	=91	=91	=91
!	!	!	!	!	!	!LO:TUP:a	!	!	!	!	!	!	!	!	!	!	!
!	!	!	!	!	!	!LO:TX:t=P:problem:klamra łukowa	!	!	!	!	!	!	!	!	!	!	!
[2.BB/	.	[2.BB/	.	8r	.	12b\L	.	2.BB/	et	2.B\	et	2.f#\	et	2.dd#\	et	2.ryy	2.ryy
.	.	.	.	.	.	12cc#\	.	.	.	.	.	.	.	.	.	.	.
.	.	.	.	8b|\	.	.	.	.	.	.	.	.	.	.	.	.	.
.	.	.	.	.	.	12dd#X\J	.	.	.	.	.	.	.	.	.	.	.
*	*	*	*	*	*	*Xtuplet	*	*	*	*	*	*	*	*	*	*	*
!	!	!	!	!LO:TX:t=P:problem:klamra łukowa	!	!	!	!	!	!	!	!	!	!	!	!	!
!	!	!	!	!LO:TUP:a	!	!LO:TX:t=P:problem:klamra łukowa	!	!	!	!	!	!	!	!	!	!	!
.	.	.	.	12b\L	.	12dd#\L	.	.	.	.	.	.	.	.	.	.	.
.	.	.	.	12cc#\	.	12ee\	.	.	.	.	.	.	.	.	.	.	.
.	.	.	.	12dd#\J	.	12ff#\J	.	.	.	.	.	.	.	.	.	.	.
!	!	!	!	!LO:TX:t=P:problem:klamra łukowa	!	!	!	!	!	!	!	!	!	!	!	!	!
!	!	!	!	!LO:TUP:a	!	!LO:TX:t=P:problem:klamra łukowa	!	!	!	!	!	!	!	!	!	!	!
.	.	.	.	12dd#\L	.	12ff#\L	.	.	.	.	.	.	.	.	.	.	.
.	.	.	.	12ee\	.	12gg#\	.	.	.	.	.	.	.	.	.	.	.
.	.	.	.	12ff#\J	.	12aa\J	.	.	.	.	.	.	.	.	.	.	.
=92	=92	=92	=92	=92	=92	=92	=92	=92	=92	=92	=92	=92	=92	=92	=92	=92	=92
!LO:TX:t=P:problem:mixed beam	!	!LO:TX:t=P:problem:mixed beam	!	!	!	!	!	!	!	!	!	!	!	!	!	!	!
8BB/L]	.7	8BB/L]	.	2.ff#T\	.	2.aaT\	.	2.BB/	in	2.B\	in	2.f#\	in	2.dd#\	in	2.ryy	2.ryy
8B\	.	8B\	.	.	.	.	.	.	.	.	.	.	.	.	.	.	.
8A#X\	.	8A#X\	.	.	.	.	.	.	.	.	.	.	.	.	.	.	.
8B\	.	8B\	.	.	.	.	.	.	.	.	.	.	.	.	.	.	.
8BB/	.	8BB/	.	.	.	.	.	.	.	.	.	.	.	.	.	.	.
8B\J	.	8B\J	.	.	.	.	.	.	.	.	.	.	.	.	.	.	.
!	!	!	!	!	!	!	!	!	!	!	!	!LO:LB:g=original	!	!	!	!	!
=93	=93	=93	=93	=93	=93	=93	=93	=93	=93	=93	=93	=93	=93	=93	=93	=93	=93
!	!	!	!	!	!	!LO:TX:t=P:problem:klamra łukowa	!	!	!	!	!	!	!	!	!	!	!
[2.BB/	6 4	[2.BB/	.	8r	.	12b\L	.	2BB/	sae-	2B\	sae-	2g#\	sae-	2ee\	sae-	2.ryy	2.ryy
.	.	.	.	.	.	12dd#\	.	.	.	.	.	.	.	.	.	.	.
.	.	.	.	8g#|/	.	.	.	.	.	.	.	.	.	.	.	.	.
.	.	.	.	.	.	12ee\J	.	.	.	.	.	.	.	.	.	.	.
!	!	!	!	!LO:TX:t=P:problem:klamra łukowa	!	!LO:TX:t=P:problem:klamra łukowa	!	!	!	!	!	!	!	!	!	!	!
!	!	!	!	!LO:TUP:a	!	!	!	!	!	!	!	!	!	!	!	!	!
.	.	.	.	12b\L	.	12ee\L	.	.	.	.	.	.	.	.	.	.	.
.	.	.	.	12dd#\	.	12ff#\	.	.	.	.	.	.	.	.	.	.	.
.	.	.	.	12ee\J	.	12gg#\J	.	.	.	.	.	.	.	.	.	.	.
!	!	!	!	!LO:TUP:a	!	!	!	!	!	!	!	!	!	!	!	!	!
!	!	!	!	!LO:TX:t=P:problem:klamra łukowa	!	!LO:TX:t=P:problem:klamra łukowa	!	!	!	!	!	!	!	!	!	!	!
.	.	.	.	12ee\L	.	12gg#\L	.	4BB/	-cu-	4B\	-cu-	4g#\	-cu-	4ee\	-cu-	.	.
.	.	.	.	12ff#\	.	12aa\	.	.	.	.	.	.	.	.	.	.	.
.	.	.	.	12gg#\J	.	12bb\J	.	.	.	.	.	.	.	.	.	.	.
=94	=94	=94	=94	=94	=94	=94	=94	=94	=94	=94	=94	=94	=94	=94	=94	=94	=94
!LO:TX:t=P:problem:mixed beam	!	!LO:TX:t=P:problem:mixed beam	!	!	!	!	!	!	!	!	!	!	!	!	!	!	!
8BB/L]	6 4	8BB/L]	.	2.gg#t\	.	2.bbT\	.	2.BB/	-la	2.B\	-la	2.g#\	-la	2.ee\	-la	2.ryy	2.ryy
8B\	.	8B\	.	.	.	.	.	.	.	.	.	.	.	.	.	.	.
8A#X\	.	8A#X\	.	.	.	.	.	.	.	.	.	.	.	.	.	.	.
8B\	.	8B\	.	.	.	.	.	.	.	.	.	.	.	.	.	.	.
8BB/	.	8BB/	.	.	.	.	.	.	.	.	.	.	.	.	.	.	.
8B\J	.	8B\J	.	.	.	.	.	.	.	.	.	.	.	.	.	.	.
=95	=95	=95	=95	=95	=95	=95	=95	=95	=95	=95	=95	=95	=95	=95	=95	=95	=95
*	*	*	*	*Xtuplet	*	*	*	*	*	*	*	*	*	*	*	*	*
!	!	!	!	!LO:TX:t=P:problem:klamra łukowa	!	!LO:TX:t=P:problem:klamra łukowa	!	!	!	!	!	!	!	!	!	!	!
[2.BB/	7 3	[2.BB/	.	12b\L	.	12dd#\L	.	2BB/	sae-	2B\	sae-	2a\	sae-	2ff#\	sae-	2.ryy	2.ryy
.	.	.	.	12cc#\	.	12ee\	.	.	.	.	.	.	.	.	.	.	.
.	.	.	.	12dd#\J	.	12ff#\J	.	.	.	.	.	.	.	.	.	.	.
!	!	!	!	!LO:TX:t=P:problem:klamra łukowa	!	!LO:TX:t=P:problem:klamra łukowa	!	!	!	!	!	!	!	!	!	!	!
.	.	.	.	12dd#\L	.	12ff#\L	.	.	.	.	.	.	.	.	.	.	.
.	.	.	.	12ee\	.	12gg#\	.	.	.	.	.	.	.	.	.	.	.
.	.	.	.	12ff#\J	.	12aa\J	.	.	.	.	.	.	.	.	.	.	.
!	!	!	!	!LO:TX:t=P:problem:klamra łukowa	!	!LO:TX:t=P:problem:klamra łukowa	!	!	!	!	!	!	!	!	!	!	!
.	.	.	.	12ff#\L	.	12aa\L	.	4BB/	-cu-	4B\	-cu-	4a\	-cu-	4ff#\	-cu-	.	.
.	.	.	.	12gg#\	.	12bb\	.	.	.	.	.	.	.	.	.	.	.
.	.	.	.	12aa\J	.	12ccc#\J	.	.	.	.	.	.	.	.	.	.	.
=96	=96	=96	=96	=96	=96	=96	=96	=96	=96	=96	=96	=96	=96	=96	=96	=96	=96
!LO:TX:t=P:problem:mixed beam	!	!LO:TX:t=P:problem:mixed beam	!	!	!	!	!	!	!	!	!	!	!	!	!	!	!
8BB/L]	9 7	8BB/L]	.	2.aa\	.	2.ccc#T\	.	2BB/	-lo-	2d#\	-lo-	2a\	-lo-	2ff#\	-lo-	2.ryy	2.ryy
8B\	.	8B\	.	.	.	.	.	.	.	.	.	.	.	.	.	.	.
8A#X\	.	8A#X\	.	.	.	.	.	.	.	.	.	.	.	.	.	.	.
8B\	.	8B\	.	.	.	.	.	.	.	.	.	.	.	.	.	.	.
8BB/	.	8BB/	.	.	.	.	.	4BB/	-rum	4d#\	-rum	4a\	-rum	4dd#\	-rum	.	.
8B\J	.	8B\J	.	.	.	.	.	.	.	.	.	.	.	.	.	.	.
!	!	!	!	!LO:LB:g=original	!	!LO:LB:g=original	!	!LO:LB:g=original	!	!	!	!	!	!	!	!	!
=97	=97	=97	=97	=97	=97	=97	=97	=97	=97	=97	=97	=97	=97	=97	=97	=97	=97
4E\	.	4E\	.	8.gg#\L	.	16bb|\LL	.	4E\	a-	2.B\	a-	4g#\	a-	4ee\	a-	2.ryy	2.ryy
.	.	.	.	.	.	(16gg#\	.	.	.	.	.	.	.	.	.	.	.
.	.	.	.	.	.	16ff#\	.	.	.	.	.	.	.	.	.	.	.
.	.	.	.	16ee\Jk	.	16ee\JJ)	.	.	.	.	.	.	.	.	.	.	.
.	.	.	.	8qqee/	.	8qqee/	.	.	.	.	.	.	.	.	.	.	.
2BB/	.	2BB/	.	2dd#t\	.	2ff#T\	.	2BB/	.	.	.	2f#T\	.	2dd#t\	.	.	.
=98	=98	=98	=98	=98	=98	=98	=98	=98	=98	=98	=98	=98	=98	=98	=98	=98	=98
4E\	.	4E\	.	8ee\L	.	8ee\L	.	4E\	-men	4B\	-men	4g#\	-men	4ee\	-men	2.ryy	2.ryy
.	.	.	.	8ee\J	.	8gg#\J	.	.	.	.	.	.	.	.	.	.	.
4AA/	6	4AA/	.	4ff#\	.	4aa\	.	4r	.	4r	.	4r	.	4r	.	.	.
4BB/	.	4BB/	.	4dd#\	.	4ff#\	.	4r	.	4r	.	4r	.	4r	.	.	.
=99	=99	=99	=99	=99	=99	=99	=99	=99	=99	=99	=99	=99	=99	=99	=99	=99	=99
!	!	!	!	!LO:TX:t=P:problem:mixed beam	!	!LO:TX:t=P:problem:mixed beam	!	!	!	!	!	!	!	!	!	!	!
8E\L	.	8E\L	.	8ee\L	.	8gg#\L	.	8r	.	8r	.	8r	.	8r	.	2.ryy	2.ryy
8c#\J	.	8c#\J	.	8e/J	.	8g#/J	.	8c#\	a-	8c#\	a-	8g#\	a-	8ee\	a-	.	.
4A\	6	4A\	.	4f#/	.	4a/	.	4A\	.	(4c#\	.	4a\	.	4ff#\	.	.	.
4B\	.	4B\	.	4d#/	.	4f#/	.	4B\	.	4B\)	.	4f#\	.	4dd#\	.	.	.
=100	=100	=100	=100	=100	=100	=100	=100	=100	=100	=100	=100	=100	=100	=100	=100	=100	=100
!	!	!	!	!LO:TX:t=P:problem:mixed beam	!	!LO:TX:t=P:problem:mixed beam	!	!	!	!	!	!	!	!	!	!	!
4E\	.	4E\	.	8e/L	.	8g#/L	.	4E\	-men	4B\	-men	4g#\	-men	4ee\	-men	2.ryy	2.ryy
.	.	.	.	8ee\J	.	8gg#\J	.	.	.	.	.	.	.	.	.	.	.
4AA/	6	4AA/	.	4ff#\	.	4aa\	.	4r	.	4r	.	4r	.	4r	.	.	.
4BB/	.	4BB/	.	4dd#\	.	4ff#\	.	4r	.	4r	.	4r	.	4r	.	.	.
=101	=101	=101	=101	=101	=101	=101	=101	=101	=101	=101	=101	=101	=101	=101	=101	=101	=101
!	!	!	!	!LO:TX:t=P:problem:mixed beam	!	!LO:TX:t=P:problem:mixed beam	!	!	!	!	!	!	!	!	!	!	!
8E\L	.	8E\L	.	8ee\L	.	8gg#\L	.	8r	.	8r	.	8r	.	8r	.	2.ryy	2.ryy
8c#\J	.	8c#\J	.	8e/J	.	8g#/J	.	8c#\	a-	8c#\	a-	8g#\	a-	8ee\	a-	.	.
4A\	6	4A\	.	4f#/	.	4a/	.	4A\	.	(4c#\	.	4a\	.	4ff#\	.	.	.
4B\	.	4B\	.	4d#/	.	4f#/	.	4B\	.	4B\)	.	4f#\	.	4dd#\	.	.	.
=102	=102	=102	=102	=102	=102	=102	=102	=102	=102	=102	=102	=102	=102	=102	=102	=102	=102
*	*	*	*	*	*	*^	*	*	*	*	*	*	*	*	*	*	*
2E\	.	2E\	.	2e/	.	2ee/ 2b/	2g#\	.	2E\	-men.	2B\	-men.	2g#\	-men.	2ee\	-men.	2.ryy	2.ryy
4r	.	4r;	.	4r	.	4r	4rcyy	.	4r	.	4r	.	4r	.	4r	.	.	.
*	*	*	*	*	*	*v	*v	*	*	*	*	*	*	*	*	*	*	*
==	==	==	==	==	==	==	==	==	==	==	==	==	==	==	==	==	==
*-	*-	*-	*-	*-	*-	*-	*-	*-	*-	*-	*-	*-	*-	*-	*-	*-	*-
!!!system-decoration: [(g1)][(g2)][(g3)][(g4)]
!!!RDF**kern: | = vertical stroke
!!!RDF**dynam: f = "for"
!!!ENC: Mateusz Solarz
!!!END: 2022-04-11
!!!EED: Andrzej Borzym
!!!EEV: 2022-04-27
!!!YEC: Copyright 2022 Narodowy Instytut Fryderyka Chopina (https://polishscores.org)
!!!YEM: License CC-BY-4.0 (https://creativecommons.org/licenses/by/4.0)
